; generated by Slic3r 1.2.9 on 2016-01-10 at 05:35:41

; external perimeters extrusion width = 0.40mm
; perimeters extrusion width = 0.48mm
; infill extrusion width = 0.48mm
; solid infill extrusion width = 0.48mm
; top infill extrusion width = 0.48mm

M107
M190 S65 ; set bed temperature
M104 S205 ; set temperature
G28 ; home all axes
G1 Z5 F5000 ; lift nozzle

M109 S205 ; wait for temperature to be reached
G21 ; set units to millimeters
G90 ; use absolute coordinates
M82 ; use absolute distances for extrusion
G92 E0
G1 Z0.400 F7800.000
G1 E-2.00000 F2400.00000
G92 E0
G1 X46.583 Y69.726 F7800.000
G1 E2.00000 F2400.00000
G1 X48.743 Y68.910 E2.27422 F1800.000
G1 X50.000 Y68.792 E2.42419
G1 X178.000 Y68.792 E17.62613
G1 X180.275 Y69.189 E17.90036
G1 X182.280 Y70.333 E18.17458 F1800.000
G1 X183.780 Y72.089 E18.44881
G1 X184.595 Y74.249 E18.72303
G1 X184.714 Y75.506 E18.87300
G1 X184.714 Y178.494 E31.10444
G1 X184.317 Y180.769 E31.37867
G1 X183.173 Y182.774 E31.65289
G1 X181.417 Y184.274 E31.92712
G1 X179.257 Y185.090 E32.20134
G1 X178.000 Y185.208 E32.35131
G1 X50.000 Y185.208 E47.55325
G1 X47.725 Y184.811 E47.82747
G1 X45.720 Y183.667 E48.10170
G1 X44.220 Y181.911 E48.37592
G1 X43.405 Y179.751 E48.65015
G1 X43.286 Y178.494 E48.80012
G1 X43.286 Y75.506 E61.03156
G1 X43.683 Y73.231 E61.30578
G1 X44.827 Y71.226 E61.58001
G1 X46.537 Y69.765 E61.84711
G1 X48.373 Y71.578 F7800.000
G1 X179.627 Y71.578 E77.43551 F1800.000
G1 X181.928 Y73.879 E77.82196
G1 X181.928 Y180.121 E90.43986 F1800.000
G1 X179.627 Y182.422 E90.82632
G1 X48.373 Y182.422 E106.41472
G1 X46.072 Y180.121 E106.80117
G1 X46.072 Y73.879 E119.41907
G1 X48.331 Y71.620 E119.79840
G1 X48.669 Y72.292 F7800.000
G1 X179.331 Y72.292 E135.31654 F1800.000
G1 X181.214 Y74.175 E135.63273 F1800.000
G1 X181.214 Y179.825 E148.18036
G1 X179.331 Y181.708 E148.49656
G1 X48.669 Y181.708 E164.01469
G1 X46.786 Y179.825 E164.33088
G1 X46.786 Y74.175 E176.87852
G1 X48.626 Y72.334 E177.18758
G1 X48.965 Y73.006 F7800.000
G1 X179.035 Y73.006 E192.63545 F1800.000
G1 X180.500 Y74.470 E192.88138
G1 X180.500 Y179.530 E205.35875 F1800.000
G1 X179.035 Y180.994 E205.60468
G1 X48.965 Y180.994 E221.05255
G1 X47.500 Y179.530 E221.29847
G1 X47.500 Y74.470 E233.77584
G1 X48.922 Y73.049 E234.01464
G1 X49.260 Y73.720 F7800.000
G1 X178.740 Y73.720 E249.39225 F1800.000
G1 X179.785 Y74.766 E249.56791 F1800.000
G1 X179.785 Y179.234 E261.97501
G1 X178.740 Y180.280 E262.15068
G1 X49.260 Y180.280 E277.52828
G1 X48.215 Y179.234 E277.70394
G1 X48.215 Y74.766 E290.11105
G1 X49.218 Y73.763 E290.27958
G1 X49.556 Y74.435 F7800.000
G1 X178.444 Y74.435 E305.58692 F1800.000
G1 X179.071 Y75.062 E305.69232
G1 X179.071 Y178.938 E318.02916 F1800.000
G1 X178.444 Y179.565 E318.13456
G1 X49.556 Y179.565 E333.44190
G1 X48.929 Y178.938 E333.54729
G1 X48.929 Y75.062 E345.88413
G1 X49.514 Y74.477 E345.98241
G1 X49.852 Y75.149 F7800.000
G1 X178.148 Y75.149 E361.21948 F1800.000
G1 X178.357 Y75.358 E361.25461 F1800.000
G1 X178.357 Y178.642 E373.52119
G1 X178.148 Y178.851 E373.55632
G1 X49.852 Y178.851 E388.79339
G1 X49.643 Y178.642 E388.82853
G1 X49.643 Y75.358 E401.09510
G1 X49.810 Y75.191 E401.12311
G1 E399.12311 F2400.00000
G92 E0
G1 X50.400 Y178.094 F7800.000
G1 E2.00000 F2400.00000
G1 X50.400 Y75.906 E14.13643 F1800.000
G1 X177.600 Y75.906 E29.24336
G1 X177.600 Y178.094 E41.37979
G1 X50.460 Y178.094 E56.47959
G1 X50.600 Y177.748 F7800.000
G1 X51.114 Y177.380 F7800.000
G1 X51.114 Y76.620 E68.44639 F1800.000
G1 X176.886 Y76.620 E83.38369
G1 X176.886 Y177.380 E95.35048
G1 X51.174 Y177.380 E110.28065
G1 X61.193 Y174.821 F7800.000
G1 X66.699 Y170.792 F7800.000
G1 X67.577 Y166.525 F7800.000
G1 X66.986 Y164.321 F7800.000
G1 X66.677 Y163.371 F7800.000
G1 X71.000 Y158.800 F7800.000
G1 X71.000 Y153.800 F7800.000
G1 X71.828 Y154.628 F7800.000
G1 X71.828 Y98.472 E116.95010 F1800.000
G1 X53.672 Y98.472 E119.10648
G1 X53.672 Y117.572 E121.37490
G1 X51.828 Y117.572 E121.59382
G1 X51.828 Y77.334 E126.37265
G1 X176.172 Y77.334 E141.14031
G1 X176.172 Y176.666 E152.93747
G1 X51.828 Y176.666 E167.70513
G1 X51.828 Y154.628 E170.32243
G1 X71.768 Y154.628 E172.69061
G1 X73.725 Y147.000 F7800.000
G1 X112.000 Y147.000 F7800.000
G1 X118.000 Y147.000 F7800.000
G1 X123.500 Y145.500 F7800.000
G1 X124.000 Y107.000 F7800.000
G1 X142.000 Y104.250 F7800.000
G1 X166.500 Y104.618 F7800.000
G1 X168.931 Y88.021 F7800.000
G1 X168.058 Y86.480 F7800.000
G1 X167.820 Y85.928 F7800.000
G1 X167.704 Y85.677 F7800.000
G1 X167.612 Y85.510 F7800.000
G1 X168.573 Y84.764 F7800.000
G1 X169.057 Y84.412 F7800.000
G1 X168.827 Y84.023 E172.74430 F1800.000
G1 X168.674 Y83.597 E172.79800
G1 X168.604 Y83.157 E172.85093
G1 X168.604 Y82.849 E172.88750
G1 X168.643 Y82.544 E172.92406
G1 X168.767 Y82.116 E172.97698
G1 X168.972 Y81.713 E173.03068
G1 X169.249 Y81.356 E173.08437
G1 X169.588 Y81.057 E173.13804
G1 X169.977 Y80.827 E173.19174
G1 X170.403 Y80.673 E173.24550
G1 X170.852 Y80.604 E173.29945 F1800.000
G1 X171.151 Y80.604 E173.33495
G1 X171.456 Y80.643 E173.37148
G1 X171.884 Y80.767 E173.42442
G1 X172.287 Y80.972 E173.47811
G1 X172.644 Y81.249 E173.53180
G1 X172.943 Y81.588 E173.58547
G1 X173.173 Y81.977 E173.63917
G1 X173.326 Y82.403 E173.69286
G1 X173.396 Y82.843 E173.74580
G1 X173.396 Y83.151 E173.78236
G1 X173.357 Y83.456 E173.81892
G1 X173.233 Y83.884 E173.87185
G1 X173.028 Y84.287 E173.92555
G1 X172.751 Y84.644 E173.97924
G1 X172.412 Y84.943 E174.03291
G1 X172.023 Y85.173 E174.08660
G1 X171.597 Y85.326 E174.14030
G1 X171.157 Y85.396 E174.19323
G1 X170.849 Y85.396 E174.22980
G1 X170.544 Y85.357 E174.26636
G1 X170.116 Y85.233 E174.31928
G1 X169.713 Y85.028 E174.37298
G1 X169.356 Y84.751 E174.42667
G1 X169.097 Y84.457 E174.47322
G1 X168.658 Y84.441 F7800.000
G1 X168.442 Y84.775 F7800.000
G1 X168.178 Y84.328 E174.53494 F1800.000
G1 X167.979 Y83.776 E174.60468
G1 X167.890 Y83.213 E174.67230
G1 X167.890 Y82.804 E174.72088
G1 X167.941 Y82.399 E174.76946
G1 X168.100 Y81.852 E174.83706
G1 X168.366 Y81.329 E174.90681
G1 X168.726 Y80.865 E174.97654
G1 X169.166 Y80.477 E175.04623
G1 X169.672 Y80.178 E175.11596
G1 X170.226 Y79.978 E175.18588
G1 X170.797 Y79.889 E175.25457 F1800.000
G1 X171.196 Y79.890 E175.30197
G1 X171.601 Y79.941 E175.35047
G1 X172.148 Y80.100 E175.41809
G1 X172.671 Y80.366 E175.48783
G1 X173.135 Y80.726 E175.55756
G1 X173.523 Y81.166 E175.62724
G1 X173.822 Y81.672 E175.69698
G1 X174.021 Y82.224 E175.76671
G1 X174.110 Y82.787 E175.83434
G1 X174.110 Y83.196 E175.88292
G1 X174.059 Y83.601 E175.93149
G1 X173.900 Y84.148 E175.99911
G1 X173.634 Y84.671 E176.06885
G1 X173.274 Y85.135 E176.13858
G1 X172.834 Y85.523 E176.20826
G1 X172.328 Y85.822 E176.27800
G1 X171.776 Y86.021 E176.34773
G1 X171.213 Y86.110 E176.41536
G1 X170.804 Y86.110 E176.46394
G1 X170.399 Y86.059 E176.51251
G1 X169.852 Y85.900 E176.58012
G1 X169.329 Y85.634 E176.64987
G1 X168.865 Y85.274 E176.71960
G1 X168.473 Y84.827 E176.79015
G1 X167.828 Y85.139 F7800.000
G1 X167.529 Y84.634 E176.85991 F1800.000
G1 X167.284 Y83.954 E176.94568
G1 X167.176 Y83.270 E177.02800
G1 X167.176 Y82.759 E177.08860
G1 X167.240 Y82.253 E177.14918
G1 X167.433 Y81.588 E177.23147
G1 X167.761 Y80.944 E177.31726
G1 X168.204 Y80.374 E177.40303
G1 X168.745 Y79.896 E177.48874
G1 X169.366 Y79.529 E177.57451
G1 X170.048 Y79.283 E177.66059
G1 X170.742 Y79.175 E177.74401 F1800.000
G1 X171.242 Y79.176 E177.80331
G1 X171.747 Y79.240 E177.86377
G1 X172.412 Y79.433 E177.94609
G1 X173.056 Y79.761 E178.03188
G1 X173.626 Y80.204 E178.11763
G1 X174.104 Y80.745 E178.20333
G1 X174.471 Y81.366 E178.28911
G1 X174.716 Y82.046 E178.37489
G1 X174.824 Y82.730 E178.45720
G1 X174.824 Y83.241 E178.51780
G1 X174.760 Y83.747 E178.57838
G1 X174.567 Y84.412 E178.66069
G1 X174.239 Y85.056 E178.74648
G1 X173.796 Y85.626 E178.83224
G1 X173.255 Y86.104 E178.91794
G1 X172.634 Y86.471 E179.00371
G1 X171.954 Y86.716 E179.08949
G1 X171.270 Y86.824 E179.17181
G1 X170.759 Y86.824 E179.23240
G1 X170.253 Y86.760 E179.29299
G1 X169.588 Y86.567 E179.37528
G1 X168.944 Y86.239 E179.46108
G1 X168.374 Y85.796 E179.54684
G1 X167.896 Y85.255 E179.63254
G1 X167.858 Y85.191 E179.64144
G1 X170.852 Y168.604 F7800.000
G1 X171.151 Y168.604 E179.67694 F1800.000
G1 X171.456 Y168.643 E179.71347
G1 X171.884 Y168.767 E179.76641
G1 X172.287 Y168.972 E179.82011
G1 X172.644 Y169.249 E179.87380
G1 X172.943 Y169.588 E179.92746
G1 X173.173 Y169.977 E179.98116
G1 X173.326 Y170.403 E180.03485
G1 X173.396 Y170.843 E180.08779
G1 X173.396 Y171.151 E180.12435
G1 X173.357 Y171.456 E180.16091
G1 X173.233 Y171.884 E180.21383
G1 X173.028 Y172.287 E180.26754
G1 X172.751 Y172.644 E180.32123
G1 X172.412 Y172.943 E180.37490
G1 X172.023 Y173.173 E180.42859
G1 X171.597 Y173.326 E180.48229
G1 X171.151 Y173.397 E180.53598
G1 X170.699 Y173.383 E180.58968
G1 X170.258 Y173.284 E180.64335
G1 X169.849 Y173.107 E180.69629
G1 X169.589 Y172.942 E180.73283
G1 X169.359 Y172.752 E180.76832
G1 X169.057 Y172.412 E180.82226
G1 X168.827 Y172.023 E180.87602
G1 X168.674 Y171.597 E180.92971
G1 X168.604 Y171.157 E180.98265
G1 X168.604 Y170.849 E181.01921
G1 X168.643 Y170.544 E181.05577
G1 X168.767 Y170.116 E181.10870
G1 X168.972 Y169.713 E181.16240
G1 X169.249 Y169.356 E181.21609
G1 X169.588 Y169.057 E181.26976
G1 X169.977 Y168.827 E181.32345
G1 X170.403 Y168.673 E181.37721
G1 X170.793 Y168.613 E181.42404 F1800.000
G1 X170.988 Y168.337 F7800.000
G1 X170.742 Y167.898 F7800.000
G1 X171.196 Y167.890 E181.47798 F1800.000
G1 X171.601 Y167.941 E181.52647
G1 X172.148 Y168.100 E181.59409
G1 X172.671 Y168.366 E181.66384
G1 X173.135 Y168.726 E181.73356
G1 X173.523 Y169.166 E181.80325
G1 X173.822 Y169.672 E181.87298
G1 X174.021 Y170.224 E181.94272
G1 X174.110 Y170.787 E182.01034
G1 X174.110 Y171.196 E182.05892
G1 X174.059 Y171.601 E182.10750
G1 X173.900 Y172.148 E182.17510
G1 X173.634 Y172.671 E182.24485
G1 X173.274 Y173.135 E182.31458
G1 X172.834 Y173.523 E182.38427
G1 X172.328 Y173.822 E182.45400
G1 X171.776 Y174.021 E182.52374
G1 X171.196 Y174.113 E182.59347
G1 X170.609 Y174.094 E182.66320
G1 X170.036 Y173.966 E182.73290
G1 X169.514 Y173.740 E182.80054
G1 X169.169 Y173.521 E182.84905
G1 X168.861 Y173.267 E182.89643
G1 X168.477 Y172.835 E182.96509
G1 X168.178 Y172.328 E183.03501
G1 X167.979 Y171.776 E183.10475
G1 X167.890 Y171.213 E183.17237
G1 X167.890 Y170.804 E183.22095
G1 X167.941 Y170.399 E183.26952
G1 X168.100 Y169.852 E183.33715
G1 X168.366 Y169.329 E183.40689
G1 X168.726 Y168.865 E183.47661
G1 X169.166 Y168.477 E183.54630
G1 X169.672 Y168.178 E183.61603
G1 X170.226 Y167.978 E183.68595
G1 X170.683 Y167.907 E183.74090 F1800.000
G1 X170.632 Y167.192 F7800.000
G1 X170.742 Y167.175 E183.75412 F1800.000
G1 X171.242 Y167.176 E183.81342
G1 X171.747 Y167.240 E183.87388
G1 X172.412 Y167.433 E183.95619
G1 X173.056 Y167.761 E184.04199
G1 X173.626 Y168.204 E184.12774
G1 X174.104 Y168.745 E184.21344
G1 X174.471 Y169.366 E184.29922
G1 X174.716 Y170.046 E184.38500
G1 X174.824 Y170.730 E184.46731
G1 X174.824 Y171.241 E184.52791
G1 X174.760 Y171.747 E184.58849
G1 X174.567 Y172.412 E184.67078
G1 X174.239 Y173.056 E184.75658
G1 X173.796 Y173.626 E184.84235
G1 X173.255 Y174.104 E184.92805
G1 X172.634 Y174.471 E185.01382
G1 X171.954 Y174.716 E185.09960
G1 X171.241 Y174.829 E185.18537
G1 X170.519 Y174.806 E185.27114
G1 X169.815 Y174.649 E185.35687
G1 X169.178 Y174.373 E185.43920
G1 X168.748 Y174.101 E185.49967
G1 X168.363 Y173.783 E185.55895
G1 X167.898 Y173.257 E185.64234
G1 X167.529 Y172.634 E185.72842
G1 X167.284 Y171.954 E185.81419
G1 X167.176 Y171.270 E185.89651
G1 X167.176 Y170.759 E185.95711
G1 X167.240 Y170.253 E186.01768
G1 X167.433 Y169.588 E186.10000
G1 X167.761 Y168.944 E186.18579
G1 X168.204 Y168.374 E186.27155
G1 X168.745 Y167.896 E186.35725
G1 X169.366 Y167.529 E186.44302
G1 X170.048 Y167.283 E186.52910
G1 X170.573 Y167.201 E186.59218 F1800.000
G1 X142.830 Y161.737 F7800.000
G1 X142.710 Y162.205 E186.64962 F1800.000
G1 X142.532 Y162.655 E186.70704
G1 X142.415 Y162.884 E186.73763
G1 X142.159 Y163.287 E186.79431
G1 X142.005 Y163.487 E186.82427
G1 X141.828 Y163.686 E186.85587
G1 X141.491 Y164.001 E186.91072
G1 X141.287 Y164.159 E186.94130
G1 X140.884 Y164.415 E186.99798
G1 X140.655 Y164.532 E187.02857
G1 X140.205 Y164.710 E187.08599
G1 X139.731 Y164.832 E187.14418
G1 X139.245 Y164.893 E187.20235
G1 X138.761 Y164.893 E187.25979
G1 X138.263 Y164.830 E187.31944
G1 X137.795 Y164.710 E187.37689
G1 X137.345 Y164.532 E187.43431
G1 X137.116 Y164.415 E187.46490
G1 X136.713 Y164.159 E187.52158
G1 X136.509 Y164.001 E187.55218
G1 X136.161 Y163.675 E187.60886
G1 X135.991 Y163.481 E187.63946
G1 X135.710 Y163.095 E187.69623
G1 X135.572 Y162.860 E187.72859
G1 X135.373 Y162.436 E187.78419
G1 X135.224 Y161.975 E187.84168
G1 X135.165 Y161.709 E187.87404
G1 X135.107 Y161.245 E187.92963
G1 X135.107 Y160.761 E187.98705
G1 X135.170 Y160.263 E188.04671
G1 X135.290 Y159.795 E188.10414
G1 X135.468 Y159.345 E188.16157
G1 X135.585 Y159.116 E188.19216
G1 X135.844 Y158.707 E188.24959
G1 X136.156 Y158.330 E188.30777
G1 X136.509 Y157.999 E188.36520
G1 X136.713 Y157.841 E188.39581
G1 X137.116 Y157.585 E188.45249
G1 X137.345 Y157.468 E188.48308
G1 X137.789 Y157.292 E188.53976
G1 X138.036 Y157.221 E188.57035
G1 X138.506 Y157.131 E188.62712
G1 X138.777 Y157.106 E188.65948 F1800.000
G1 X139.245 Y157.107 E188.71508
G1 X139.731 Y157.168 E188.77323
G1 X140.199 Y157.289 E188.83067
G1 X140.442 Y157.376 E188.86126
G1 X140.873 Y157.579 E188.91794
G1 X141.095 Y157.710 E188.94854
G1 X141.481 Y157.991 E189.00522
G1 X141.675 Y158.161 E189.03581
G1 X142.001 Y158.509 E189.09249
G1 X142.159 Y158.713 E189.12310
G1 X142.415 Y159.116 E189.17978
G1 X142.532 Y159.345 E189.21037
G1 X142.708 Y159.789 E189.26704
G1 X142.835 Y160.291 E189.32856
G1 X142.893 Y160.755 E189.38415
G1 X142.893 Y161.239 E189.44157
G1 X142.840 Y161.678 E189.49410
G1 X143.127 Y162.005 F7800.000
G1 X143.522 Y161.915 F7800.000
G1 X143.390 Y162.427 E189.55688 F1800.000
G1 X143.183 Y162.949 E189.62364
G1 X143.036 Y163.239 E189.66223
G1 X142.744 Y163.699 E189.72691
G1 X142.340 Y164.184 E189.80197
G1 X141.955 Y164.545 E189.86465
G1 X141.699 Y164.744 E189.90319
G1 X141.239 Y165.036 E189.96787
G1 X140.949 Y165.183 E190.00645
G1 X140.427 Y165.390 E190.07321
G1 X139.865 Y165.535 E190.14207
G1 X139.290 Y165.607 E190.21091
G1 X138.728 Y165.607 E190.27769
G1 X138.118 Y165.530 E190.35067
G1 X137.573 Y165.390 E190.41745
G1 X137.051 Y165.183 E190.48421
G1 X136.761 Y165.036 E190.52279
G1 X136.301 Y164.744 E190.58747
G1 X136.045 Y164.545 E190.62608
G1 X135.648 Y164.172 E190.69076
G1 X135.433 Y163.928 E190.72936
G1 X135.111 Y163.486 E190.79429
G1 X134.939 Y163.193 E190.83470
G1 X134.708 Y162.699 E190.89948
G1 X134.533 Y162.163 E190.96641
G1 X134.461 Y161.830 E191.00681
G1 X134.393 Y161.289 E191.07158
G1 X134.393 Y160.728 E191.13829
G1 X134.470 Y160.118 E191.21127
G1 X134.610 Y159.573 E191.27804
G1 X134.817 Y159.051 E191.34480
G1 X134.964 Y158.761 E191.38339
G1 X135.265 Y158.287 E191.45016
G1 X135.635 Y157.840 E191.51901
G1 X136.045 Y157.455 E191.58578
G1 X136.301 Y157.256 E191.62439
G1 X136.761 Y156.964 E191.68907
G1 X137.051 Y156.817 E191.72766
G1 X137.557 Y156.616 E191.79235
G1 X137.869 Y156.525 E191.83094
G1 X138.406 Y156.423 E191.89586
G1 X138.745 Y156.392 E191.93627 F1800.000
G1 X139.291 Y156.393 E192.00105
G1 X139.865 Y156.465 E192.06981
G1 X140.410 Y156.605 E192.13660
G1 X140.715 Y156.715 E192.17519
G1 X141.208 Y156.947 E192.23986
G1 X141.488 Y157.113 E192.27846
G1 X141.928 Y157.433 E192.34314
G1 X142.172 Y157.648 E192.38173
G1 X142.545 Y158.045 E192.44641
G1 X142.744 Y158.301 E192.48502
G1 X143.036 Y158.761 E192.54970
G1 X143.183 Y159.051 E192.58829
G1 X143.384 Y159.557 E192.65297
G1 X143.539 Y160.170 E192.72801
G1 X143.607 Y160.711 E192.79278
G1 X143.607 Y161.272 E192.85949
G1 X143.534 Y161.856 E192.92933
G1 X144.214 Y162.092 F7800.000
G1 X144.071 Y162.648 E192.99745 F1800.000
G1 X143.835 Y163.243 E193.07355
G1 X143.657 Y163.593 E193.12013
G1 X143.329 Y164.110 E193.19281
G1 X142.852 Y164.683 E193.28142
G1 X142.419 Y165.089 E193.35193
G1 X142.110 Y165.329 E193.39842
G1 X141.593 Y165.657 E193.47110
