; generated by Slic3r 1.2.9 on 2016-01-08 at 21:23:32

; external perimeters extrusion width = 0.40mm
; perimeters extrusion width = 0.48mm
; infill extrusion width = 0.48mm
; solid infill extrusion width = 0.48mm
; top infill extrusion width = 0.48mm

M107
M190 S65 ; set bed temperature
M104 S205 ; set temperature
G28 ; home all axes
G1 Z5 F5000 ; lift nozzle

M109 S205 ; wait for temperature to be reached
G21 ; set units to millimeters
G90 ; use absolute coordinates
M82 ; use absolute distances for extrusion
G92 E0
G1 Z0.400 F7800.000
G1 E-2.00000 F2400.00000
G92 E0
G1 X66.042 Y66.122 F7800.000
G1 E2.00000 F2400.00000
G1 X66.350 Y65.833 E2.05010 F1800.000
G1 X70.303 Y62.365 E2.67465
G1 X74.467 Y59.153 E3.29922
G1 X78.467 Y56.434 E3.87372
G1 X82.987 Y53.745 E4.49831
G1 X87.667 Y51.346 E5.12286
G1 X88.048 Y51.166 E5.17296
G1 X92.880 Y49.090 E5.79752
G1 X97.833 Y47.321 E6.42211
G1 X102.478 Y45.972 E6.99661
G1 X107.607 Y44.811 E7.62116
G1 X108.021 Y44.732 E7.67126
G1 X113.217 Y43.923 E8.29582
G1 X118.033 Y43.468 E8.87032
G1 X123.289 Y43.289 E9.49490
G1 X124.033 Y43.299 E9.58327
G1 X128.967 Y43.468 E10.16956 F1800.000
G1 X134.201 Y43.976 E10.79411
G1 X139.393 Y44.811 E11.41869
G1 X144.522 Y45.972 E12.04324
G1 X149.167 Y47.321 E12.61774
G1 X154.120 Y49.090 E13.24233
G1 X158.952 Y51.166 E13.86689
G1 X163.643 Y53.542 E14.49147
G1 X168.176 Y56.207 E15.11602
G1 X172.533 Y59.153 E15.74061
G1 X176.697 Y62.365 E16.36518
G1 X180.650 Y65.833 E16.98973
G1 X184.378 Y69.542 E17.61432
G1 X186.536 Y71.970 E18.00012
G1 X187.743 Y73.939 E18.27434
G1 X188.214 Y76.410 E18.57315
G1 X188.214 Y177.590 E30.58974
G1 X187.817 Y179.864 E30.86396
G1 X186.536 Y182.030 E31.16277
G1 X184.378 Y184.458 E31.54857
G1 X180.958 Y187.878 E32.12307
G1 X177.022 Y191.366 E32.74765
G1 X172.875 Y194.599 E33.37219
G1 X168.533 Y197.566 E33.99677
G1 X164.013 Y200.255 E34.62137
G1 X159.333 Y202.654 E35.24591
G1 X158.952 Y202.834 E35.29600
G1 X154.120 Y204.910 E35.92058
G1 X149.167 Y206.679 E36.54516
G1 X144.522 Y208.028 E37.11966
G1 X143.799 Y208.204 E37.20802
G1 X138.979 Y209.268 E37.79429
G1 X134.201 Y210.024 E38.36880
G1 X128.967 Y210.532 E38.99335
G1 X123.711 Y210.711 E39.61794
G1 X118.454 Y210.559 E40.24250
G1 X118.033 Y210.532 E40.29261
G1 X113.217 Y210.077 E40.86711
G1 X108.021 Y209.268 E41.49166
G1 X102.886 Y208.133 E42.11624
G1 X97.833 Y206.679 E42.74079
G1 X97.431 Y206.549 E42.79088
G1 X92.880 Y204.910 E43.36540
G1 X88.048 Y202.834 E43.98997
G1 X83.357 Y200.458 E44.61454
G1 X78.824 Y197.793 E45.23909
G1 X78.467 Y197.566 E45.28920
G1 X74.125 Y194.600 E45.91377
G1 X70.303 Y191.635 E46.48827
G1 X66.350 Y188.167 E47.11283
G1 X62.622 Y184.458 E47.73741
G1 X62.333 Y184.150 E47.78751
G1 X58.865 Y180.197 E48.41206
G1 X55.901 Y176.375 E48.98656
G1 X52.934 Y172.033 E49.61113
G1 X52.707 Y171.676 E49.66124
G1 X50.042 Y167.143 E50.28580
G1 X47.846 Y162.833 E50.86030
G1 X45.873 Y158.308 E51.44657
G1 X45.590 Y157.620 E51.53494
G1 X43.951 Y153.069 E52.10945
G1 X43.821 Y152.667 E52.15956
G1 X42.367 Y147.614 E52.78412
G1 X41.232 Y142.479 E53.40868
G1 X40.476 Y137.701 E53.98319
G1 X39.998 Y132.788 E54.56944
G1 X39.941 Y132.046 E54.65784
G1 X39.789 Y127.211 E55.23234
G1 X39.941 Y121.954 E55.85689
G1 X40.423 Y116.717 E56.48148
G1 X41.182 Y111.840 E57.06774
G1 X41.311 Y111.107 E57.15613
G1 X42.367 Y106.386 E57.73062
G1 X43.821 Y101.333 E58.35518
G1 X45.590 Y96.380 E58.97977
G1 X47.525 Y91.875 E59.56213
G1 X47.846 Y91.167 E59.65442
G1 X50.042 Y86.857 E60.22892
G1 X52.707 Y82.324 E60.85347
G1 X55.653 Y77.967 E61.47806
G1 X55.901 Y77.625 E61.52816
G1 X59.134 Y73.478 E62.15270
G1 X62.333 Y69.850 E62.72720
G1 X66.000 Y66.164 E63.34466
G1 E61.34466 F2400.00000
G92 E0
G1 X68.012 Y68.092 F7800.000
G1 E2.00000 F2400.00000
G1 X71.962 Y64.605 E2.62576 F1800.000
G1 X75.882 Y61.564 E3.21491
G1 X80.085 Y58.703 E3.81872
G1 X84.459 Y56.112 E4.42253
G1 X88.987 Y53.801 E5.02633
G1 X93.766 Y51.732 E5.64478
G1 X98.551 Y50.014 E6.24859
G1 X103.314 Y48.630 E6.83775
G1 X108.396 Y47.494 E7.45619
G1 X113.418 Y46.703 E8.05999
G1 X118.357 Y46.236 E8.64915
G1 X123.438 Y46.072 E9.25296
G1 X123.946 Y46.084 E9.31323
G1 X128.643 Y46.236 E9.87141 F1800.000
G1 X133.704 Y46.718 E10.47521
G1 X138.604 Y47.494 E11.06437
G1 X143.566 Y48.599 E11.66817
G1 X148.567 Y50.052 E12.28662
G1 X153.349 Y51.778 E12.89043
G1 X158.013 Y53.801 E13.49423
G1 X162.541 Y56.112 E14.09803
G1 X166.915 Y58.703 E14.70184
G1 X171.018 Y61.492 E15.29100
G1 X175.038 Y64.605 E15.89480
G1 X178.854 Y67.964 E16.49859
G1 X182.536 Y71.646 E17.11706
G1 X184.921 Y74.351 E17.54531
G1 X185.428 Y75.693 E17.71570
G1 X185.428 Y178.307 E29.90269
G1 X184.921 Y179.649 E30.07308
G1 X182.452 Y182.444 E30.51598
G1 X178.944 Y185.952 E31.10514
G1 X175.133 Y189.317 E31.70895
G1 X171.118 Y192.436 E32.31274
G1 X166.915 Y195.297 E32.91654
G1 X162.541 Y197.888 E33.52036
G1 X157.902 Y200.252 E34.13880
G1 X153.234 Y202.268 E34.74262
G1 X148.449 Y203.986 E35.34642
G1 X143.566 Y205.401 E35.95021
G1 X138.725 Y206.483 E36.53936
G1 X133.582 Y207.297 E37.15782
G1 X128.520 Y207.772 E37.76163
G1 X123.562 Y207.928 E38.35078
G1 X118.357 Y207.764 E38.96924
G1 X113.418 Y207.297 E39.55839
G1 X108.396 Y206.506 E40.16219
G1 X103.434 Y205.401 E40.76599
G1 X98.433 Y203.948 E41.38444
G1 X93.766 Y202.268 E41.97361
G1 X89.098 Y200.252 E42.57740
G1 X84.567 Y197.947 E43.18121
G1 X80.085 Y195.297 E43.79966
G1 X75.882 Y192.436 E44.40347
G1 X71.867 Y189.317 E45.00727
G1 X68.146 Y186.036 E45.59642
G1 X64.548 Y182.444 E46.20023
G1 X61.105 Y178.538 E46.81868
G1 X57.992 Y174.518 E47.42248
G1 X55.203 Y170.415 E48.01164
G1 X52.553 Y165.933 E48.63009
G1 X50.301 Y161.513 E49.21925
G1 X48.430 Y157.202 E49.77742
G1 X48.232 Y156.734 E49.83770
G1 X46.552 Y152.067 E50.42686
G1 X45.099 Y147.066 E51.04531
G1 X44.017 Y142.225 E51.63446
G1 X43.218 Y137.204 E52.23827
G1 X42.728 Y132.020 E52.85672
G1 X42.572 Y127.062 E53.44588
G1 X42.728 Y121.980 E54.04968
G1 X43.203 Y116.918 E54.65349
G1 X44.017 Y111.775 E55.27194
G1 X45.099 Y106.934 E55.86109
G1 X46.514 Y102.051 E56.46489
G1 X48.232 Y97.266 E57.06870
G1 X50.301 Y92.487 E57.68715
G1 X52.553 Y88.067 E58.27630
G1 X55.137 Y83.689 E58.88010
G1 X57.992 Y79.482 E59.48392
G1 X61.183 Y75.367 E60.10236
G1 X64.464 Y71.646 E60.69151
G1 X67.970 Y68.134 E61.28087
G1 X68.517 Y68.597 F7800.000
G1 X72.409 Y65.162 E61.89731 F1800.000
G1 X76.392 Y62.076 E62.49578
G1 X80.477 Y59.300 E63.08228
G1 X84.901 Y56.684 E63.69274
G1 X89.301 Y54.442 E64.27923
G1 X93.924 Y52.438 E64.87770
G1 X98.761 Y50.697 E65.48817
G1 X103.503 Y49.319 E66.07466
G1 X108.420 Y48.217 E66.67313
G1 X113.396 Y47.425 E67.27161
G1 X118.413 Y46.948 E67.87008
G1 X123.550 Y46.786 E68.48054
G1 X128.587 Y46.948 E69.07902 F1800.000
G1 X133.503 Y47.413 E69.66551
G1 X138.481 Y48.198 E70.26399
G1 X143.399 Y49.294 E70.86245
G1 X148.335 Y50.728 E71.47291
G1 X153.076 Y52.438 E72.07139
G1 X157.699 Y54.442 E72.66987
G1 X162.187 Y56.733 E73.26834
G1 X166.523 Y59.300 E73.86682
G1 X170.608 Y62.076 E74.45332
G1 X174.591 Y65.162 E75.05179
G1 X178.373 Y68.492 E75.65025
G1 X181.939 Y72.053 E76.24874
G1 X184.299 Y74.725 E76.67215
G1 X184.714 Y75.823 E76.81157
G1 X184.714 Y178.177 E88.96757
G1 X184.299 Y179.275 E89.10698
G1 X181.939 Y181.947 E89.53039
G1 X178.447 Y185.439 E90.11689
G1 X174.669 Y188.774 E90.71537
G1 X170.689 Y191.865 E91.31383
G1 X166.523 Y194.700 E91.91231
G1 X162.187 Y197.268 E92.51080
G1 X157.699 Y199.558 E93.10926
G1 X153.076 Y201.562 E93.70774
G1 X148.239 Y203.303 E94.31820
G1 X143.399 Y204.706 E94.91667
G1 X138.580 Y205.783 E95.50316
G1 X133.604 Y206.575 E96.10164
G1 X128.486 Y207.059 E96.71210
G1 X123.550 Y207.214 E97.29859
G1 X118.514 Y207.059 E97.89707
G1 X113.497 Y206.587 E98.49555
G1 X108.420 Y205.783 E99.10601
G1 X103.601 Y204.706 E99.69249
G1 X98.761 Y203.303 E100.29096
G1 X93.924 Y201.562 E100.90144
G1 X89.392 Y199.601 E101.48792
G1 X88.969 Y199.389 E101.54420
G1 X84.813 Y197.267 E102.09838
G1 X80.562 Y194.754 E102.68486
G1 X76.311 Y191.865 E103.29534
G1 X72.409 Y188.838 E103.88182
G1 X68.627 Y185.508 E104.48029
G1 X65.061 Y181.947 E105.07878
G1 X61.662 Y178.091 E105.68923
G1 X58.635 Y174.189 E106.27571
G1 X55.800 Y170.023 E106.87420
G1 X53.184 Y165.599 E107.48466
G1 X50.942 Y161.199 E108.07115
G1 X49.086 Y156.918 E108.62533
G1 X48.901 Y156.482 E108.68161
G1 X47.228 Y151.835 E109.26810
G1 X45.794 Y146.899 E109.87856
G1 X44.698 Y141.981 E110.47703
G1 X43.913 Y137.003 E111.07551
G1 X43.448 Y132.087 E111.66200
G1 X43.286 Y126.950 E112.27246
G1 X43.448 Y121.913 E112.87094
G1 X43.913 Y116.997 E113.45743
G1 X44.717 Y111.920 E114.06789
G1 X45.794 Y107.101 E114.65438
G1 X47.197 Y102.261 E115.25285
G1 X48.938 Y97.424 E115.86332
G1 X50.942 Y92.801 E116.46179
G1 X53.184 Y88.401 E117.04828
G1 X55.746 Y84.062 E117.64675
G1 X58.576 Y79.892 E118.24524
G1 X61.726 Y75.831 E118.85569
G1 X64.992 Y72.127 E119.44217
G1 X68.475 Y68.639 E120.02754
G1 X69.022 Y69.102 F7800.000
G1 X72.855 Y65.720 E120.63466 F1800.000
G1 X76.740 Y62.707 E121.21847
G1 X80.869 Y59.897 E121.81163
G1 X85.166 Y57.353 E122.40478
G1 X89.615 Y55.083 E122.99792
G1 X94.271 Y53.069 E123.60039
G1 X98.896 Y51.404 E124.18422
G1 X103.691 Y50.008 E124.77737
G1 X108.642 Y48.901 E125.37983
G1 X113.497 Y48.132 E125.96366
G1 X118.469 Y47.660 E126.55680
G1 X123.461 Y47.500 E127.14995
G1 X123.901 Y47.512 E127.20224
G1 X128.531 Y47.660 E127.75242 F1800.000
G1 X133.503 Y48.132 E128.34557
G1 X138.358 Y48.901 E128.92940
G1 X143.233 Y49.988 E129.52254
G1 X148.104 Y51.404 E130.12501
G1 X152.802 Y53.098 E130.71816
G1 X157.385 Y55.083 E131.31130
G1 X161.834 Y57.353 E131.90445
G1 X166.131 Y59.897 E132.49760
G1 X170.197 Y62.660 E133.08143
G1 X174.145 Y65.720 E133.67457
G1 X177.893 Y69.020 E134.26771
G1 X181.426 Y72.550 E134.86087
G1 X183.677 Y75.100 E135.26479
G1 X184.000 Y75.954 E135.37323
G1 X184.000 Y178.046 E147.49825
G1 X183.677 Y178.900 E147.60668
G1 X181.426 Y181.450 E148.01061
G1 X177.950 Y184.926 E148.59444
G1 X174.205 Y188.230 E149.18759
G1 X170.260 Y191.293 E149.78072
G1 X166.131 Y194.103 E150.37387
G1 X161.834 Y196.647 E150.96703
G1 X157.314 Y198.950 E151.56949
G1 X152.729 Y200.931 E152.16264
G1 X148.029 Y202.621 E152.75579
G1 X143.233 Y204.012 E153.34893
G1 X138.435 Y205.084 E153.93275
G1 X133.425 Y205.878 E154.53523
G1 X128.531 Y206.340 E155.11905
G1 X123.539 Y206.500 E155.71220
G1 X118.469 Y206.340 E156.31467
G1 X113.575 Y205.878 E156.89850
G1 X108.642 Y205.099 E157.49164
G1 X103.767 Y204.012 E158.08478
G1 X98.896 Y202.596 E158.68725
G1 X94.271 Y200.931 E159.27108
G1 X89.686 Y198.950 E159.86423
G1 X85.235 Y196.685 E160.45737
G1 X80.869 Y194.103 E161.05984
G1 X76.740 Y191.293 E161.65300
G1 X72.855 Y188.280 E162.23682
G1 X69.107 Y184.980 E162.82996
G1 X65.574 Y181.450 E163.42311
G1 X62.220 Y177.645 E164.02558
G1 X59.207 Y173.760 E164.60940
G1 X56.397 Y169.631 E165.20255
G1 X53.815 Y165.265 E165.80502
G1 X51.583 Y160.885 E166.38884
G1 X49.741 Y156.634 E166.93903
G1 X49.569 Y156.229 E166.99131
G1 X47.904 Y151.604 E167.57514
G1 X46.488 Y146.733 E168.17761
G1 X45.401 Y141.858 E168.77075
G1 X44.632 Y137.003 E169.35458
G1 X44.160 Y132.031 E169.94772
G1 X44.000 Y126.961 E170.55019
G1 X44.155 Y122.047 E171.13402
G1 X44.622 Y117.075 E171.72717
G1 X45.416 Y112.065 E172.32964
G1 X46.488 Y107.267 E172.91346
G1 X47.879 Y102.471 E173.50660
G1 X49.569 Y97.771 E174.09976
G1 X51.583 Y93.115 E174.70222
G1 X53.815 Y88.735 E175.28605
G1 X56.355 Y84.435 E175.87919
G1 X59.160 Y80.303 E176.47235
G1 X62.270 Y76.295 E177.07481
G1 X65.520 Y72.607 E177.65863
G1 X68.980 Y69.144 E178.24000
G1 X69.527 Y69.607 F7800.000
G1 X73.302 Y66.277 E178.83780 F1800.000
G1 X77.168 Y63.278 E179.41895
G1 X81.261 Y60.494 E180.00677
G1 X85.569 Y57.946 E180.60125
G1 X89.929 Y55.725 E181.18241
G1 X94.471 Y53.758 E181.77023
G1 X99.181 Y52.062 E182.36471
G1 X103.880 Y50.697 E182.94587
G1 X108.709 Y49.615 E183.53368
G1 X113.598 Y48.839 E184.12150
G1 X118.525 Y48.372 E184.70932
G1 X123.528 Y48.215 E185.30380
G1 X128.419 Y48.368 E185.88496 F1800.000
G1 X133.347 Y48.832 E186.47278
G1 X138.290 Y49.615 E187.06726
G1 X143.120 Y50.697 E187.65507
G1 X147.819 Y52.062 E188.23623
G1 X152.477 Y53.737 E188.82405
G1 X157.020 Y55.701 E189.41187
G1 X161.431 Y57.946 E189.99969
G1 X165.692 Y60.464 E190.58751
G1 X169.786 Y63.245 E191.17533
G1 X173.698 Y66.277 E191.76315
G1 X177.412 Y69.549 E192.35096
G1 X180.913 Y73.047 E192.93879
G1 X183.055 Y75.474 E193.32323
G1 X183.285 Y76.084 E193.40068
G1 X183.285 Y177.916 E205.49472
G1 X183.055 Y178.526 E205.57217
G1 X180.951 Y180.912 E205.94995
G1 X177.453 Y184.413 E206.53778
G1 X173.741 Y187.687 E207.12560
G1 X169.786 Y190.755 E207.72007
G1 X165.739 Y193.506 E208.30123
G1 X161.480 Y196.027 E208.88906
G1 X157.071 Y198.275 E209.47687
G1 X152.529 Y200.242 E210.06469
G1 X147.819 Y201.938 E210.65917
G1 X143.120 Y203.303 E211.24033
G1 X138.291 Y204.385 E211.82814
G1 X133.402 Y205.161 E212.41596
G1 X128.419 Y205.632 E213.01044
G1 X123.528 Y205.785 E213.59160
G1 X118.581 Y205.632 E214.17942
G1 X113.653 Y205.168 E214.76724
G1 X108.709 Y204.385 E215.36172
G1 X103.934 Y203.317 E215.94287
G1 X99.181 Y201.938 E216.53069
G1 X94.471 Y200.242 E217.12517
G1 X89.980 Y198.299 E217.70633
G1 X89.617 Y198.116 E217.75462
G1 X85.520 Y196.027 E218.30080
G1 X81.308 Y193.536 E218.88196
G1 X77.168 Y190.722 E219.47645
G1 X73.302 Y187.723 E220.05760
G1 X69.588 Y184.451 E220.64542
G1 X66.087 Y180.953 E221.23324
G1 X62.777 Y177.198 E221.82772
G1 X59.778 Y173.332 E222.40887
G1 X56.994 Y169.239 E222.99670
G1 X54.446 Y164.931 E223.59118
G1 X52.225 Y160.571 E224.17233
G1 X50.397 Y156.351 E224.71852
G1 X50.237 Y155.977 E224.76681
G1 X48.579 Y151.373 E225.34797
G1 X47.183 Y146.566 E225.94245
G1 X46.105 Y141.735 E226.53026
G1 X45.339 Y136.902 E227.11143
G1 X44.872 Y131.975 E227.69924
G1 X44.715 Y126.972 E228.29372
G1 X44.868 Y122.081 E228.87488
G1 X45.332 Y117.153 E229.46270
G1 X46.115 Y112.209 E230.05718
G1 X47.183 Y107.434 E230.63834
G1 X48.562 Y102.681 E231.22615
G1 X50.237 Y98.023 E231.81398
G1 X52.225 Y93.429 E232.40845
G1 X54.446 Y89.069 E232.98961
G1 X56.964 Y84.808 E233.57743
G1 X59.745 Y80.714 E234.16526
G1 X62.813 Y76.759 E234.75972
G1 X66.049 Y73.088 E235.34088
G1 X69.485 Y69.649 E235.91825
G1 X70.032 Y70.112 F7800.000
G1 X73.749 Y66.834 E236.50673 F1800.000
G1 X77.597 Y63.849 E237.08522
G1 X81.653 Y61.091 E237.66771
G1 X85.874 Y58.594 E238.25021
G1 X90.244 Y56.366 E238.83269
G1 X94.776 Y54.405 E239.41918
G1 X99.391 Y52.745 E240.00167
G1 X104.068 Y51.386 E240.58017
G1 X108.887 Y50.308 E241.16665
G1 X113.698 Y49.547 E241.74515
G1 X118.581 Y49.084 E242.32763
G1 X123.483 Y48.929 E242.91013
G1 X123.856 Y48.939 E242.95442
G1 X128.419 Y49.084 E243.49661 F1800.000
G1 X133.302 Y49.547 E244.07910
G1 X138.113 Y50.308 E244.65760
G1 X142.899 Y51.377 E245.24008
G1 X147.641 Y52.755 E245.82657
G1 X152.224 Y54.405 E246.40507
G1 X156.726 Y56.352 E246.98756
G1 X161.096 Y58.578 E247.57005
G1 X165.318 Y61.073 E248.15254
G1 X169.403 Y63.849 E248.73903
G1 X173.251 Y66.834 E249.31752
G1 X176.931 Y70.077 E249.90000
G1 X180.423 Y73.569 E250.48650
G1 X182.433 Y75.849 E250.84746
G1 X182.571 Y76.215 E250.89393
G1 X182.571 Y177.785 E262.95699
G1 X182.433 Y178.151 E263.00346
G1 X180.423 Y180.431 E263.36442
G1 X176.931 Y183.923 E263.95091
G1 X173.251 Y187.166 E264.53340
G1 X169.376 Y190.171 E265.11588
G1 X165.318 Y192.927 E265.69838
G1 X161.096 Y195.422 E266.28087
G1 X156.726 Y197.648 E266.86336
G1 X152.224 Y199.595 E267.44585
G1 X147.609 Y201.255 E268.02834
G1 X142.932 Y202.614 E268.60684
G1 X138.146 Y203.685 E269.18932
G1 X133.302 Y204.453 E269.77181
G1 X128.385 Y204.918 E270.35830
G1 X123.517 Y205.071 E270.93679
G1 X118.615 Y204.918 E271.51928
G1 X113.732 Y204.458 E272.10178
G1 X108.854 Y203.685 E272.68827
G1 X104.101 Y202.623 E273.26675
G1 X99.391 Y201.255 E273.84924
G1 X94.744 Y199.583 E274.43573
G1 X90.274 Y197.648 E275.01422
G1 X89.941 Y197.480 E275.05852
G1 X85.874 Y195.406 E275.60071
G1 X81.682 Y192.927 E276.17920
G1 X77.597 Y190.151 E276.76570
G1 X73.749 Y187.166 E277.34419
G1 X70.069 Y183.923 E277.92667
G1 X66.600 Y180.456 E278.50917
G1 X63.334 Y176.751 E279.09565
G1 X60.329 Y172.876 E279.67814
