; generated by Slic3r 1.2.9 on 2016-01-08 at 05:02:13

; external perimeters extrusion width = 0.40mm
; perimeters extrusion width = 0.48mm
; infill extrusion width = 0.48mm
; solid infill extrusion width = 0.48mm
; top infill extrusion width = 0.48mm

M107
M190 S65 ; set bed temperature
M104 S205 ; set temperature
G28 ; home all axes
G1 Z5 F5000 ; lift nozzle

M109 S205 ; wait for temperature to be reached
G21 ; set units to millimeters
G90 ; use absolute coordinates
M82 ; use absolute distances for extrusion
G92 E0
G1 Z0.400 F7800.000
G1 E-2.00000 F2400.00000
G92 E0
G1 X55.536 Y62.994 F7800.000
G1 E2.00000 F2400.00000
G1 X58.891 Y60.054 E2.52978 F1800.000
G1 X62.862 Y56.973 E3.12667
G1 X63.203 Y56.725 E3.17677
G1 X67.716 Y53.675 E3.82371
G1 X72.411 Y50.913 E4.47065
G1 X76.889 Y48.631 E5.06754
G1 X77.271 Y48.452 E5.11764
G1 X82.276 Y46.301 E5.76458
G1 X87.004 Y44.598 E6.36146
G1 X92.232 Y43.066 E7.00842
G1 X97.545 Y41.865 E7.65536
G1 X97.959 Y41.786 E7.70546
G1 X103.342 Y40.946 E8.35242
G1 X108.345 Y40.474 E8.94931
G1 X113.789 Y40.289 E9.59625
G1 X114.546 Y40.300 E9.68613
G1 X119.655 Y40.474 E10.29328 F1800.000
G1 X124.658 Y40.946 E10.89016
G1 X125.408 Y41.052 E10.98005
G1 X130.455 Y41.865 E11.58721
G1 X135.360 Y42.961 E12.18410
G1 X140.595 Y44.468 E12.83104
G1 X145.724 Y46.301 E13.47799
G1 X150.729 Y48.452 E14.12493
G1 X151.110 Y48.631 E14.17503
G1 X155.958 Y51.116 E14.82199
G1 X160.284 Y53.675 E15.41887
G1 X164.797 Y56.725 E16.06581
G1 X165.138 Y56.973 E16.11591
G1 X169.434 Y60.323 E16.76286
G1 X173.204 Y63.646 E17.35975
G1 X176.828 Y67.252 E17.96691
G1 X177.354 Y67.796 E18.05678
G1 X180.678 Y71.566 E18.65368
G1 X184.027 Y75.862 E19.30062
G1 X184.275 Y76.203 E19.35073
G1 X187.099 Y80.360 E19.94761
G1 X189.884 Y85.042 E20.59454
G1 X192.369 Y89.889 E21.24150
G1 X194.411 Y94.576 E21.84865
G1 X194.699 Y95.276 E21.93853
G1 X196.402 Y100.004 E22.53542
G1 X197.934 Y105.232 E23.18237
G1 X199.062 Y110.218 E23.78952
G1 X199.215 Y110.959 E23.87940
G1 X200.054 Y116.342 E24.52636
G1 X200.526 Y121.345 E25.12326
G1 X200.711 Y126.789 E25.77018
G1 X200.711 Y127.211 E25.82029
G1 X200.526 Y132.655 E26.46722
G1 X200.054 Y137.658 E27.06411
G1 X199.214 Y143.041 E27.71107
G1 X199.135 Y143.455 E27.76117
G1 X197.934 Y148.768 E28.40811
G1 X196.532 Y153.595 E29.00500
G1 X194.699 Y158.724 E29.65195
G1 X192.548 Y163.729 E30.29889
G1 X192.369 Y164.111 E30.34899
G1 X189.884 Y168.958 E30.99595
G1 X187.325 Y173.284 E31.59284
G1 X184.275 Y177.797 E32.23976
G1 X180.946 Y182.109 E32.88674
G1 X177.354 Y186.204 E33.53368
G1 X177.065 Y186.511 E33.58378
G1 X173.511 Y190.065 E34.18066
G1 X169.434 Y193.677 E34.82762
G1 X168.844 Y194.152 E34.91747
G1 X164.797 Y197.275 E35.52466
G1 X160.284 Y200.325 E36.17158
G1 X155.958 Y202.884 E36.76848
G1 X151.111 Y205.369 E37.41543
G1 X150.729 Y205.548 E37.46553
G1 X145.724 Y207.699 E38.11248
G1 X140.595 Y209.532 E38.75943
G1 X135.768 Y210.934 E39.35631
G1 X130.455 Y212.135 E40.00325
G1 X130.041 Y212.214 E40.05335
G1 X124.658 Y213.054 E40.70032
G1 X119.234 Y213.553 E41.34725
G1 X114.211 Y213.711 E41.94414
G1 X113.789 Y213.711 E41.99424
G1 X108.345 Y213.526 E42.64117
G1 X102.923 Y213.001 E43.28815
G1 X97.545 Y212.135 E43.93509
G1 X92.640 Y211.039 E44.53199
G1 X87.405 Y209.532 E45.17893
G1 X87.004 Y209.402 E45.22902
G1 X81.884 Y207.544 E45.87597
G1 X77.271 Y205.548 E46.47285
G1 X72.411 Y203.087 E47.11982
G1 X72.042 Y202.884 E47.16991
G1 X67.360 Y200.099 E47.81684
G1 X63.203 Y197.275 E48.41372
G1 X58.891 Y193.946 E49.06068
G1 X58.315 Y193.456 E49.15055
G1 X54.489 Y190.065 E49.75773
G1 X50.935 Y186.511 E50.35460
G1 X47.544 Y182.685 E50.96177
G1 X47.054 Y182.109 E51.05165
G1 X43.973 Y178.138 E51.64853
G1 X43.725 Y177.797 E51.69863
G1 X40.675 Y173.284 E52.34557
G1 X38.116 Y168.958 E52.94244
G1 X35.784 Y164.409 E53.54961
G1 X35.452 Y163.729 E53.63949
G1 X33.456 Y159.116 E54.23636
G1 X31.598 Y153.996 E54.88331
G1 X31.468 Y153.595 E54.93341
G1 X30.066 Y148.768 E55.53030
G1 X28.865 Y143.455 E56.17723
G1 X28.052 Y138.408 E56.78440
G1 X27.946 Y137.658 E56.87428
G1 X27.474 Y132.655 E57.47117
G1 X27.300 Y127.546 E58.07832
G1 X27.289 Y126.789 E58.16820
G1 X27.447 Y121.766 E58.76508
G1 X27.946 Y116.342 E59.41202
G1 X27.999 Y115.923 E59.46213
G1 X28.786 Y110.959 E60.05901
G1 X29.961 Y105.640 E60.70597
G1 X31.468 Y100.405 E61.35291
G1 X31.598 Y100.004 E61.40301
G1 X33.301 Y95.276 E61.99989
G1 X35.452 Y90.271 E62.64683
G1 X37.913 Y85.411 E63.29380
G1 X38.116 Y85.042 E63.34389
G1 X40.901 Y80.360 E63.99082
G1 X43.725 Y76.203 E64.58770
G1 X47.054 Y71.891 E65.23466
G1 X50.425 Y68.047 E65.84183
G1 X50.935 Y67.489 E65.93171
G1 X54.489 Y63.935 E66.52858
G1 X55.491 Y63.033 E66.68871
G1 E64.68871 F2400.00000
G92 E0
G1 X57.379 Y65.084 F7800.000
G1 E2.00000 F2400.00000
G1 X60.550 Y62.293 E2.50169 F1800.000
G1 X64.619 Y59.137 E3.11323
G1 X69.081 Y56.104 E3.75406
G1 X73.513 Y53.483 E4.36559
G1 X78.209 Y51.086 E4.99179
G1 X83.161 Y48.943 E5.63262
G1 X88.006 Y47.199 E6.24415
G1 X93.068 Y45.724 E6.87034
G1 X98.334 Y44.547 E7.51118
G1 X103.420 Y43.742 E8.12271
G1 X108.669 Y43.242 E8.74891
G1 X113.938 Y43.072 E9.37509
G1 X114.458 Y43.085 E9.43686
G1 X119.331 Y43.242 E10.01593 F1800.000
G1 X124.458 Y43.726 E10.62747
G1 X129.787 Y44.570 E11.26831
G1 X134.812 Y45.694 E11.87984
G1 X139.876 Y47.161 E12.50603
G1 X144.839 Y48.943 E13.13222
G1 X149.679 Y51.033 E13.75839
G1 X154.487 Y53.483 E14.39924
G1 X158.919 Y56.104 E15.01077
G1 X163.282 Y59.065 E15.63695
G1 X167.545 Y62.372 E16.27779
G1 X171.408 Y65.777 E16.88933
G1 X174.858 Y69.222 E17.46840
G1 X175.223 Y69.592 E17.53017
G1 X178.628 Y73.455 E18.14172
G1 X181.935 Y77.718 E18.78255
G1 X184.896 Y82.081 E19.40873
G1 X187.517 Y86.513 E20.02026
G1 X189.914 Y91.209 E20.64646
G1 X192.057 Y96.161 E21.28729
G1 X193.801 Y101.006 E21.89883
G1 X195.276 Y106.068 E22.52501
G1 X196.453 Y111.334 E23.16585
G1 X197.258 Y116.420 E23.77738
G1 X197.758 Y121.669 E24.40358
G1 X197.928 Y127.062 E25.04441
G1 X197.766 Y132.208 E25.65595
G1 X197.274 Y137.458 E26.28213
G1 X196.453 Y142.666 E26.90832
G1 X195.276 Y147.932 E27.54916
G1 X193.839 Y152.876 E28.16069
G1 X192.057 Y157.839 E28.78688
G1 X189.967 Y162.679 E29.41306
G1 X187.517 Y167.487 E30.05391
G1 X184.896 Y171.919 E30.66544
G1 X181.935 Y176.282 E31.29162
G1 X178.707 Y180.450 E31.91782
G1 X175.139 Y184.498 E32.55865
G1 X171.498 Y188.139 E33.17019
G1 X167.545 Y191.628 E33.79638
G1 X163.282 Y194.935 E34.43722
G1 X158.919 Y197.896 E35.06339
G1 X154.487 Y200.517 E35.67493
G1 X149.791 Y202.914 E36.30113
G1 X144.839 Y205.057 E36.94196
G1 X139.994 Y206.801 E37.55349
G1 X134.932 Y208.276 E38.17968
G1 X129.666 Y209.453 E38.82051
G1 X124.458 Y210.274 E39.44671
G1 X119.331 Y210.758 E40.05824
G1 X114.062 Y210.928 E40.68443
G1 X108.669 Y210.758 E41.32525
G1 X103.420 Y210.258 E41.95146
G1 X98.213 Y209.430 E42.57763
G1 X93.188 Y208.306 E43.18918
G1 X88.006 Y206.801 E43.83001
G1 X83.047 Y205.011 E44.45619
G1 X78.321 Y202.967 E45.06773
G1 X73.621 Y200.576 E45.69393
G1 X68.977 Y197.830 E46.33475
G1 X64.718 Y194.935 E46.94628
G1 X60.550 Y191.707 E47.57247
G1 X56.502 Y188.139 E48.21332
G1 X52.861 Y184.498 E48.82485
G1 X49.634 Y180.843 E49.40393
G1 X49.293 Y180.450 E49.46570
G1 X46.137 Y176.381 E50.07723
G1 X43.104 Y171.919 E50.71807
G1 X40.483 Y167.487 E51.32960
G1 X38.266 Y163.144 E51.90867
G1 X38.033 Y162.679 E51.97045
G1 X35.989 Y157.953 E52.58197
G1 X34.161 Y152.876 E53.22281
G1 X32.724 Y147.932 E53.83435
G1 X31.570 Y142.787 E54.46053
G1 X30.726 Y137.458 E55.10137
G1 X30.242 Y132.331 E55.71291
G1 X30.072 Y127.062 E56.33910
G1 X30.234 Y121.792 E56.96528
G1 X30.742 Y116.420 E57.60612
G1 X31.547 Y111.334 E58.21766
G1 X32.694 Y106.188 E58.84385
G1 X34.199 Y101.006 E59.48468
G1 X35.943 Y96.161 E60.09622
G1 X38.033 Y91.321 E60.72240
G1 X40.424 Y86.621 E61.34860
G1 X43.170 Y81.977 E61.98942
G1 X46.137 Y77.619 E62.61561
G1 X49.293 Y73.550 E63.22715
G1 X52.861 Y69.502 E63.86799
G1 X56.502 Y65.861 E64.47952
G1 X57.334 Y65.123 E64.61155
G1 X57.851 Y65.619 F7800.000
G1 X60.996 Y62.851 E65.10924 F1800.000
G1 X65.047 Y59.708 E65.71812
G1 X69.455 Y56.713 E66.35096
G1 X73.867 Y54.104 E66.95982
G1 X78.524 Y51.727 E67.58069
G1 X83.414 Y49.611 E68.21352
G1 X88.238 Y47.875 E68.82240
G1 X93.257 Y46.413 E69.44326
G1 X98.457 Y45.251 E70.07610
G1 X103.520 Y44.449 E70.68497
G1 X108.725 Y43.954 E71.30584
G1 X114.050 Y43.786 E71.93868
G1 X119.175 Y43.947 E72.54755 F1800.000
G1 X124.379 Y44.436 E73.16841
G1 X129.543 Y45.251 E73.78927
G1 X134.743 Y46.413 E74.42211
G1 X139.666 Y47.843 E75.03099
G1 X144.586 Y49.611 E75.65185
G1 X149.476 Y51.727 E76.28468
G1 X154.133 Y54.104 E76.90555
G1 X158.545 Y56.713 E77.51442
G1 X162.871 Y59.649 E78.13527
G1 X167.081 Y62.915 E78.76811
G1 X170.927 Y66.305 E79.37699
G1 X174.353 Y69.727 E79.95206
G1 X174.695 Y70.073 E80.00984
G1 X178.085 Y73.919 E80.61872
G1 X181.351 Y78.129 E81.25156
G1 X184.233 Y82.369 E81.86043
G1 X186.896 Y86.867 E82.48128
G1 X189.273 Y91.524 E83.10215
G1 X191.389 Y96.414 E83.73499
G1 X193.125 Y101.238 E84.34386
G1 X194.587 Y106.257 E84.96472
G1 X195.749 Y111.457 E85.59756
G1 X196.551 Y116.520 E86.20643
G1 X197.046 Y121.725 E86.82730
G1 X197.214 Y127.050 E87.46014
G1 X197.053 Y132.175 E88.06901
G1 X196.564 Y137.379 E88.68986
G1 X195.749 Y142.543 E89.31073
G1 X194.587 Y147.743 E89.94357
G1 X193.157 Y152.666 E90.55244
G1 X191.389 Y157.586 E91.17330
G1 X189.273 Y162.476 E91.80614
G1 X186.896 Y167.133 E92.42701
G1 X184.287 Y171.546 E93.03588
G1 X181.351 Y175.871 E93.65672
G1 X178.149 Y180.004 E94.27759
G1 X174.626 Y184.001 E94.91044
G1 X171.001 Y187.626 E95.51931
G1 X167.081 Y191.085 E96.14017
G1 X162.871 Y194.351 E96.77302
G1 X158.546 Y197.287 E97.39387
G1 X154.133 Y199.896 E98.00274
G1 X149.476 Y202.273 E98.62361
G1 X144.586 Y204.389 E99.25645
G1 X139.762 Y206.125 E99.86531
G1 X134.743 Y207.587 E100.48617
G1 X129.543 Y208.749 E101.11902
G1 X124.379 Y209.564 E101.73988
G1 X119.175 Y210.053 E102.36073
G1 X114.050 Y210.214 E102.96961
G1 X108.725 Y210.046 E103.60245
G1 X103.520 Y209.551 E104.22332
G1 X98.358 Y208.730 E104.84417
G1 X93.354 Y207.612 E105.45305
G1 X88.238 Y206.125 E106.08589
G1 X83.320 Y204.352 E106.70674
G1 X78.615 Y202.316 E107.31561
G1 X73.956 Y199.945 E107.93648
G1 X69.369 Y197.233 E108.56931
G1 X65.129 Y194.351 E109.17818
G1 X60.997 Y191.150 E109.79904
G1 X56.999 Y187.626 E110.43190
G1 X53.374 Y184.001 E111.04076
G1 X50.170 Y180.370 E111.61584
G1 X49.851 Y180.003 E111.67362
G1 X46.708 Y175.953 E112.28249
G1 X43.713 Y171.545 E112.91533
G1 X41.104 Y167.133 E113.52420
G1 X38.902 Y162.820 E114.09928
G1 X38.684 Y162.385 E114.15705
G1 X36.648 Y157.680 E114.76592
G1 X34.843 Y152.666 E115.39876
G1 X33.413 Y147.743 E116.00763
G1 X32.270 Y142.642 E116.62849
G1 X31.436 Y137.379 E117.26134
G1 X30.954 Y132.275 E117.87021
G1 X30.786 Y127.050 E118.49107
G1 X30.954 Y121.725 E119.12391
G1 X31.449 Y116.520 E119.74478
G1 X32.251 Y111.457 E120.35364
G1 X33.388 Y106.354 E120.97451
G1 X34.875 Y101.238 E121.60735
G1 X36.611 Y96.414 E122.21622
G1 X38.684 Y91.615 E122.83707
G1 X41.055 Y86.956 E123.45794
G1 X43.767 Y82.369 E124.09077
G1 X46.649 Y78.129 E124.69964
G1 X49.851 Y73.996 E125.32050
G1 X53.374 Y69.999 E125.95336
G1 X56.999 Y66.374 E126.56222
G1 X57.806 Y65.659 E126.69025
G1 X58.323 Y66.155 F7800.000
G1 X61.443 Y63.408 E127.18395 F1800.000
G1 X65.476 Y60.279 E127.79016
G1 X69.828 Y57.322 E128.41501
G1 X74.221 Y54.724 E129.02121
G1 X78.838 Y52.369 E129.63675
G1 X83.666 Y50.279 E130.26159
G1 X88.469 Y48.550 E130.86780
G1 X93.445 Y47.102 E131.48333
G1 X98.580 Y45.954 E132.10819
G1 X103.699 Y45.146 E132.72372
G1 X108.781 Y44.666 E133.32993
G1 X113.961 Y44.500 E133.94546
G1 X114.413 Y44.512 E133.99924
G1 X119.219 Y44.666 E134.57031 F1800.000
G1 X124.301 Y45.146 E135.17652
G1 X129.497 Y45.969 E135.80137
G1 X134.479 Y47.083 E136.40758
G1 X139.456 Y48.526 E137.02311
G1 X144.334 Y50.279 E137.63864
G1 X149.091 Y52.335 E138.25416
G1 X153.779 Y54.724 E138.87902
G1 X158.172 Y57.322 E139.48522
G1 X162.460 Y60.233 E140.10075
G1 X166.617 Y63.458 E140.72560
G1 X170.446 Y66.834 E141.33182
G1 X173.848 Y70.232 E141.90289
G1 X174.166 Y70.554 E141.95667
G1 X177.542 Y74.383 E142.56288
G1 X180.767 Y78.540 E143.18774
G1 X183.636 Y82.761 E143.79394
G1 X186.276 Y87.221 E144.40946
G1 X188.631 Y91.838 E145.02500
G1 X190.721 Y96.666 E145.64985
G1 X192.450 Y101.469 E146.25605
G1 X193.898 Y106.445 E146.87158
G1 X195.046 Y111.580 E147.49644
G1 X195.854 Y116.699 E148.11197
G1 X196.334 Y121.781 E148.71818
G1 X196.500 Y126.961 E149.33370
G1 X196.334 Y132.219 E149.95856
G1 X195.844 Y137.379 E150.57409
G1 X195.046 Y142.420 E151.18030
G1 X193.898 Y147.555 E151.80515
G1 X192.474 Y152.456 E152.41136
G1 X190.721 Y157.334 E153.02689
G1 X188.665 Y162.091 E153.64241
G1 X186.276 Y166.779 E154.26727
G1 X183.678 Y171.172 E154.87348
G1 X180.767 Y175.460 E155.48900
G1 X177.592 Y179.557 E156.10453
G1 X174.113 Y183.503 E156.72939
G1 X170.503 Y187.113 E157.33560
G1 X166.617 Y190.542 E157.95113
G1 X162.460 Y193.767 E158.57599
G1 X158.172 Y196.678 E159.19151
G1 X153.779 Y199.276 E159.79771
G1 X149.162 Y201.631 E160.41325
G1 X144.334 Y203.721 E161.03810
G1 X139.456 Y205.474 E161.65362
G1 X134.555 Y206.898 E162.25983
G1 X129.420 Y208.046 E162.88468
G1 X124.301 Y208.854 E163.50022
G1 X119.141 Y209.339 E164.11574
G1 X114.039 Y209.500 E164.72195
G1 X108.781 Y209.334 E165.34680
G1 X103.621 Y208.844 E165.96234
G1 X98.580 Y208.046 E166.56854
G1 X93.521 Y206.917 E167.18408
G1 X88.469 Y205.450 E167.80893
G1 X83.593 Y203.692 E168.42446
G1 X78.909 Y201.665 E169.03066
G1 X74.290 Y199.314 E169.64620
G1 X69.761 Y196.636 E170.27104
G1 X65.540 Y193.767 E170.87725
G1 X61.443 Y190.592 E171.49278
G1 X57.497 Y187.113 E172.11764
G1 X53.887 Y183.503 E172.72384
G1 X50.706 Y179.898 E173.29492
G1 X50.408 Y179.557 E173.34870
G1 X47.279 Y175.524 E173.95491
G1 X44.322 Y171.172 E174.57976
G1 X41.724 Y166.779 E175.18596
G1 X39.539 Y162.496 E175.75704
G1 X39.335 Y162.091 E175.81082
G1 X37.308 Y157.407 E176.41702
G1 X35.526 Y152.456 E177.04187
G1 X34.102 Y147.555 E177.64808
G1 X32.969 Y142.497 E178.26361
G1 X32.146 Y137.301 E178.88846
G1 X31.666 Y132.219 E179.49468
G1 X31.500 Y127.039 E180.11020
G1 X31.666 Y121.781 E180.73505
G1 X32.156 Y116.621 E181.35059
G1 X32.969 Y111.503 E181.96612
G1 X34.083 Y106.521 E182.57233
G1 X35.526 Y101.544 E183.18786
G1 X37.308 Y96.593 E183.81271
G1 X39.335 Y91.909 E184.41891
G1 X41.686 Y87.290 E185.03445
G1 X44.364 Y82.761 E185.65929
G1 X47.279 Y78.476 E186.27482
G1 X50.408 Y74.443 E186.88103
G1 X53.887 Y70.497 E187.50589
G1 X57.497 Y66.887 E188.11209
G1 X58.278 Y66.195 E188.23612
G1 X58.796 Y66.691 F7800.000
G1 X61.890 Y63.965 E188.72583 F1800.000
G1 X65.905 Y60.851 E189.32937
G1 X70.201 Y57.931 E189.94623
G1 X74.624 Y55.317 E190.55642
G1 X79.152 Y53.010 E191.15998
G1 X83.919 Y50.948 E191.77683
G1 X88.700 Y49.226 E192.38037
G1 X93.634 Y47.791 E192.99057
G1 X98.702 Y46.658 E193.60744
G1 X103.722 Y45.863 E194.21097
G1 X108.837 Y45.378 E194.82118
G1 X114.028 Y45.215 E195.43804
G1 X119.107 Y45.374 E196.04158 F1800.000
G1 X124.223 Y45.856 E196.65179
G1 X129.298 Y46.658 E197.26199
G1 X134.366 Y47.791 E197.87885
G1 X139.246 Y49.209 E198.48239
G1 X144.081 Y50.948 E199.09260
G1 X148.797 Y52.986 E199.70279
G1 X153.425 Y55.344 E200.31966
G1 X157.799 Y57.931 E200.92319
G1 X162.050 Y60.818 E201.53339
G1 X166.154 Y64.001 E202.15025
G1 X169.966 Y67.362 E202.75380
G1 X173.343 Y70.737 E203.32088
G1 X173.638 Y71.034 E203.37066
G1 X176.999 Y74.846 E203.97421
G1 X180.182 Y78.950 E204.59107
G1 X183.039 Y83.154 E205.19461
G1 X185.656 Y87.575 E205.80480
G1 X187.990 Y92.152 E206.41502
G1 X190.052 Y96.919 E207.03187
G1 X191.774 Y101.700 E207.63541
G1 X193.209 Y106.634 E208.24561
G1 X194.342 Y111.703 E208.86248
G1 X195.144 Y116.777 E209.47267
G1 X195.622 Y121.837 E210.07622
G1 X195.785 Y126.972 E210.68642
G1 X195.622 Y132.163 E211.30328
G1 X195.137 Y137.278 E211.91349
G1 X194.342 Y142.298 E212.51703
G1 X193.209 Y147.366 E213.13389
G1 X191.791 Y152.246 E213.73743
G1 X190.052 Y157.081 E214.34763
G1 X188.014 Y161.797 E214.95782
G1 X185.656 Y166.425 E215.57469
G1 X183.069 Y170.799 E216.17824
G1 X180.182 Y175.050 E216.78843
