; generated by Slic3r 1.2.9 on 2016-01-05 at 22:42:17

; external perimeters extrusion width = 0.40mm
; perimeters extrusion width = 0.48mm
; infill extrusion width = 0.48mm
; solid infill extrusion width = 0.48mm
; top infill extrusion width = 0.48mm

M107
M190 S65 ; set bed temperature
M104 S205 ; set temperature
G28 ; home all axes
G1 Z5 F5000 ; lift nozzle

M109 S205 ; wait for temperature to be reached
G21 ; set units to millimeters
G90 ; use absolute coordinates
M82 ; use absolute distances for extrusion
G92 E0
G1 Z0.400 F7800.000
G1 E-2.00000 F2400.00000
G92 E0
G1 X72.483 Y79.826 F7800.000
G1 E2.00000 F2400.00000
G1 X74.372 Y78.498 E2.27422 F1800.000
G1 X77.230 Y77.859 E2.62209
G1 X150.770 Y77.859 E11.35598
G1 X153.044 Y78.256 E11.63021
G1 X155.517 Y79.826 E11.97808 F1800.000
G1 X161.174 Y85.483 E12.92819
G1 X162.502 Y87.372 E13.20242
G1 X163.141 Y90.230 E13.55029
G1 X163.141 Y163.770 E22.28418
G1 X162.744 Y166.044 E22.55841
G1 X161.174 Y168.517 E22.90628
G1 X155.517 Y174.174 E23.85639
G1 X153.628 Y175.502 E24.13061
G1 X150.770 Y176.141 E24.47848
G1 X77.230 Y176.141 E33.21238
G1 X74.956 Y175.744 E33.48660
G1 X72.483 Y174.174 E33.83447
G1 X66.826 Y168.517 E34.78460
G1 X65.498 Y166.628 E35.05882
G1 X64.859 Y163.770 E35.40668
G1 X64.859 Y90.230 E44.14058
G1 X65.256 Y87.956 E44.41480
G1 X66.826 Y85.483 E44.76267
G1 X72.440 Y79.868 E45.70566
G1 E43.70566 F2400.00000
G92 E0
G1 X74.453 Y81.796 F7800.000
G1 E2.00000 F2400.00000
G1 X75.603 Y80.646 E2.19323 F1800.000
G1 X78.857 Y80.646 E2.57968
G1 X113.704 Y115.492 E8.43252
G1 X114.296 Y115.492 E8.50279
G1 X149.143 Y80.646 E14.35563
G1 X152.397 Y80.646 E14.74209
G1 X160.354 Y88.603 E16.07865 F1800.000
G1 X160.354 Y91.857 E16.46511
G1 X125.508 Y126.704 E22.31795
G1 X125.508 Y127.296 E22.38822
G1 X160.354 Y162.143 E28.24106
G1 X160.354 Y165.397 E28.62752
G1 X152.397 Y173.354 E29.96408
G1 X149.143 Y173.354 E30.35054
G1 X114.296 Y138.508 E36.20338
G1 X113.704 Y138.508 E36.27365
G1 X78.857 Y173.354 E42.12649
G1 X75.603 Y173.354 E42.51295
G1 X67.646 Y165.397 E43.84952
G1 X67.646 Y162.143 E44.23597
G1 X102.492 Y127.296 E50.08881
G1 X102.492 Y126.704 E50.15908
G1 X67.646 Y91.857 E56.01192
G1 X67.646 Y88.603 E56.39837
G1 X74.411 Y81.839 E57.53459
G1 X74.958 Y82.301 F7800.000
G1 X75.899 Y81.360 E57.69268 F1800.000
G1 X78.562 Y81.360 E58.00887
G1 X113.704 Y116.502 E63.91140
G1 X114.296 Y116.502 E63.98167
G1 X149.438 Y81.360 E69.88420
G1 X152.101 Y81.360 E70.20039 F1800.000
G1 X159.640 Y88.899 E71.46668
G1 X159.640 Y91.562 E71.78288
G1 X124.498 Y126.704 E77.68541
G1 X124.498 Y127.296 E77.75567
G1 X159.640 Y162.438 E83.65820
G1 X159.640 Y165.101 E83.97439
G1 X152.101 Y172.640 E85.24069
G1 X149.438 Y172.640 E85.55688
G1 X114.296 Y137.498 E91.45941
G1 X113.704 Y137.498 E91.52968
G1 X78.562 Y172.640 E97.43221
G1 X75.899 Y172.640 E97.74840
G1 X68.360 Y165.101 E99.01470
G1 X68.360 Y162.438 E99.33089
G1 X103.502 Y127.296 E105.23341
G1 X103.502 Y126.704 E105.30368
G1 X68.360 Y91.562 E111.20621
G1 X68.360 Y88.899 E111.52240
G1 X74.916 Y82.344 E112.62348
G1 X75.463 Y82.806 F7800.000
G1 X76.195 Y82.074 E112.74644 F1800.000
G1 X78.266 Y82.074 E112.99237
G1 X113.704 Y117.512 E118.94458
G1 X114.296 Y117.512 E119.01485
G1 X149.734 Y82.074 E124.96706
G1 X151.805 Y82.074 E125.21298
G1 X158.926 Y89.195 E126.40902 F1800.000
G1 X158.926 Y91.266 E126.65495
G1 X123.488 Y126.704 E132.60716
G1 X123.488 Y127.296 E132.67743
G1 X158.926 Y162.734 E138.62964
G1 X158.926 Y164.805 E138.87557
G1 X151.805 Y171.926 E140.07160
G1 X149.734 Y171.926 E140.31753
G1 X114.296 Y136.488 E146.26974
G1 X113.704 Y136.488 E146.34001
G1 X78.266 Y171.926 E152.29222
G1 X76.195 Y171.926 E152.53815
G1 X69.074 Y164.805 E153.73419
G1 X69.074 Y162.734 E153.98011
G1 X104.512 Y127.296 E159.93232
G1 X104.512 Y126.704 E160.00259
G1 X69.074 Y91.266 E165.95480
G1 X69.074 Y89.195 E166.20072
G1 X75.421 Y82.849 E167.26667
G1 X75.968 Y83.311 F7800.000
G1 X76.491 Y82.788 E167.35450 F1800.000
G1 X77.970 Y82.788 E167.53016
G1 X113.704 Y118.522 E173.53206
G1 X114.296 Y118.522 E173.60233
G1 X150.030 Y82.788 E179.60423
G1 X151.509 Y82.788 E179.77989 F1800.000
G1 X158.212 Y89.491 E180.90566
G1 X158.212 Y90.970 E181.08132
G1 X122.478 Y126.704 E187.08322
G1 X122.478 Y127.296 E187.15348
G1 X158.212 Y163.030 E193.15538
G1 X158.212 Y164.509 E193.33104
G1 X151.509 Y171.212 E194.45681
G1 X150.030 Y171.212 E194.63248
G1 X114.296 Y135.478 E200.63437
G1 X113.704 Y135.478 E200.70464
G1 X77.970 Y171.212 E206.70654
G1 X76.491 Y171.212 E206.88220
G1 X69.788 Y164.509 E208.00797
G1 X69.788 Y163.030 E208.18363
G1 X105.522 Y127.296 E214.18553
G1 X105.522 Y126.704 E214.25579
G1 X69.788 Y90.970 E220.25769
G1 X69.788 Y89.491 E220.43335
G1 X75.926 Y83.354 E221.46417
G1 X76.473 Y83.816 F7800.000
G1 X76.787 Y83.502 E221.51687 F1800.000
G1 X77.674 Y83.502 E221.62226
G1 X113.704 Y119.532 E227.67385
G1 X114.296 Y119.532 E227.74411
G1 X150.326 Y83.502 E233.79569
G1 X151.213 Y83.502 E233.90109
G1 X157.498 Y89.787 E234.95660 F1800.000
G1 X157.498 Y90.674 E235.06199
G1 X121.468 Y126.704 E241.11358
G1 X121.468 Y127.296 E241.18384
G1 X157.498 Y163.326 E247.23542
G1 X157.498 Y164.213 E247.34082
G1 X151.213 Y170.498 E248.39633
G1 X150.326 Y170.498 E248.50172
G1 X114.296 Y134.468 E254.55331
G1 X113.704 Y134.468 E254.62357
G1 X77.674 Y170.498 E260.67515
G1 X76.787 Y170.498 E260.78055
G1 X70.502 Y164.213 E261.83606
G1 X70.502 Y163.326 E261.94146
G1 X106.532 Y127.296 E267.99304
G1 X106.532 Y126.704 E268.06330
G1 X70.502 Y90.674 E274.11488
G1 X70.502 Y89.787 E274.22028
G1 X76.431 Y83.859 E275.21597
G1 X76.978 Y84.321 F7800.000
G1 X77.082 Y84.217 E275.23353 F1800.000
G1 X77.378 Y84.217 E275.26866
G1 X113.704 Y120.542 E281.36993
G1 X114.296 Y120.542 E281.44019
G1 X150.622 Y84.217 E287.54146
G1 X150.918 Y84.217 E287.57659 F1800.000
G1 X156.783 Y90.082 E288.56184
G1 X156.783 Y90.378 E288.59697
G1 X120.458 Y126.704 E294.69824
G1 X120.458 Y127.296 E294.76850
G1 X156.783 Y163.622 E300.86977
G1 X156.783 Y163.918 E300.90490
G1 X150.918 Y169.783 E301.89014
G1 X150.622 Y169.783 E301.92528
G1 X114.296 Y133.458 E308.02654
G1 X113.704 Y133.458 E308.09681
G1 X77.378 Y169.783 E314.19807
G1 X77.082 Y169.783 E314.23320
G1 X71.217 Y163.918 E315.21845
G1 X71.217 Y163.622 E315.25358
G1 X107.542 Y127.296 E321.35485
G1 X107.542 Y126.704 E321.42511
G1 X71.217 Y90.378 E327.52638
G1 X71.217 Y90.082 E327.56151
G1 X76.935 Y84.364 E328.52206
G1 E326.52206 F2400.00000
G92 E0
G1 X114.000 Y132.091 F7800.000
G1 E2.00000 F2400.00000
G1 X77.230 Y168.861 E8.17579 F1800.000
G1 X72.139 Y163.770 E9.03089
G1 X108.909 Y127.000 E15.20669
G1 X72.139 Y90.230 E21.38248
G1 X77.230 Y85.139 E22.23758
G1 X114.000 Y121.909 E28.41337
G1 X150.770 Y85.139 E34.58917
G1 X155.861 Y90.230 E35.44427
G1 X119.091 Y127.000 E41.62006
G1 X155.861 Y163.770 E47.79585
G1 X150.770 Y168.861 E48.65095
G1 X114.042 Y132.134 E54.81962
G1 X113.717 Y131.808 F7800.000
G1 X132.993 Y112.088 F7800.000
G1 X132.706 Y111.916 E54.85934 F1800.000
G1 X132.814 Y111.560 E54.90355
G1 X132.870 Y111.000 E54.97036
G1 X132.814 Y110.440 E55.03716
G1 X132.651 Y109.902 E55.10398
G1 X132.386 Y109.406 E55.17079
G1 X132.029 Y108.971 E55.23759
G1 X131.594 Y108.614 E55.30440
G1 X131.098 Y108.349 E55.37121
G1 X130.560 Y108.186 E55.43802
G1 X130.000 Y108.130 E55.50483
G1 X129.440 Y108.186 E55.57163
G1 X129.084 Y108.294 E55.61585
G1 X128.912 Y108.007 E55.65557
G1 X150.770 Y86.149 E59.32675
G1 X154.851 Y90.230 E60.01221
G1 X133.036 Y112.046 E63.67627
G1 X133.577 Y110.494 F7800.000
G1 X133.314 Y109.627 E63.78386 F1800.000
G1 X132.983 Y109.007 E63.86738
G1 X132.536 Y108.464 E63.95089
G1 X131.993 Y108.017 E64.03439
G1 X131.373 Y107.686 E64.11791
G1 X130.506 Y107.423 E64.22550
G1 X150.770 Y87.159 E67.62898
G1 X153.841 Y90.230 E68.14481
G1 X133.620 Y110.452 E71.54116
G1 X133.063 Y111.647 F7800.000
G1 X132.026 Y113.043 F7800.000
G1 X129.173 Y114.658 F7800.000
G1 X116.121 Y124.879 F7800.000
G1 X130.058 Y139.655 F7800.000
G1 X131.625 Y140.594 F7800.000
G1 X132.406 Y141.375 F7800.000
G1 X132.750 Y141.836 F7800.000
G1 X132.776 Y141.876 F7800.000
G1 X132.993 Y141.912 F7800.000
G1 X154.851 Y163.770 E75.21234 F1800.000
G1 X150.770 Y167.851 E75.89781
G1 X128.912 Y145.993 E79.56899
G1 X129.084 Y145.706 E79.60870
G1 X129.440 Y145.814 E79.65292
G1 X130.000 Y145.870 E79.71972
G1 X130.560 Y145.814 E79.78653
G1 X131.098 Y145.651 E79.85335
G1 X131.594 Y145.386 E79.92015
G1 X132.029 Y145.029 E79.98696
G1 X132.386 Y144.594 E80.05377
G1 X132.651 Y144.098 E80.12057
G1 X132.814 Y143.560 E80.18739
G1 X132.870 Y143.000 E80.25420
G1 X132.814 Y142.440 E80.32100
G1 X132.706 Y142.084 E80.36522
G1 X132.942 Y141.943 E80.39781
G1 X133.577 Y143.506 F7800.000
G1 X153.841 Y163.770 E83.80128 F1800.000
G1 X150.770 Y166.841 E84.31711
G1 X130.506 Y146.577 E87.72059
G1 X131.373 Y146.314 E87.82818
G1 X131.993 Y145.983 E87.91170
G1 X132.536 Y145.536 E87.99520
G1 X132.983 Y144.993 E88.07871
G1 X133.314 Y144.373 E88.16223
G1 X133.560 Y143.563 E88.26269
G1 X133.063 Y142.353 F7800.000
G1 X132.026 Y140.957 F7800.000
G1 X129.173 Y139.342 F7800.000
G1 X114.000 Y127.000 F7800.000
G1 X101.345 Y143.058 F7800.000
G1 X100.406 Y144.625 F7800.000
G1 X99.625 Y145.406 F7800.000
G1 X99.164 Y145.750 F7800.000
G1 X99.124 Y145.776 F7800.000
G1 X99.088 Y145.993 F7800.000
G1 X77.230 Y167.851 E91.93388 F1800.000
G1 X73.149 Y163.770 E92.61934
G1 X95.007 Y141.912 E96.29052
G1 X95.294 Y142.084 E96.33024
G1 X95.186 Y142.440 E96.37446
G1 X95.130 Y143.000 E96.44126
G1 X95.186 Y143.560 E96.50807
G1 X95.349 Y144.098 E96.57488
G1 X95.614 Y144.594 E96.64169
G1 X95.971 Y145.029 E96.70850
G1 X96.406 Y145.386 E96.77530
G1 X96.902 Y145.651 E96.84211
G1 X97.440 Y145.814 E96.90893
G1 X98.000 Y145.870 E96.97573
G1 X98.560 Y145.814 E97.04254
G1 X98.916 Y145.706 E97.08675
G1 X99.057 Y145.942 E97.11934
G1 X97.494 Y146.577 F7800.000
G1 X77.230 Y166.841 E100.52282 F1800.000
G1 X74.159 Y163.770 E101.03865
G1 X94.423 Y143.506 E104.44212
G1 X94.686 Y144.373 E104.54972
G1 X95.017 Y144.993 E104.63324
G1 X95.464 Y145.536 E104.71674
G1 X96.007 Y145.983 E104.80025
G1 X96.627 Y146.314 E104.88377
G1 X97.437 Y146.560 E104.98423
G1 X97.638 Y145.116 F7800.000
G1 X97.176 Y144.988 E105.04111 F1800.000
G1 X96.804 Y144.789 E105.09120
G1 X96.478 Y144.522 E105.14131
G1 X96.211 Y144.196 E105.19141
G1 X96.012 Y143.824 E105.24151
G1 X95.889 Y143.420 E105.29161
G1 X95.848 Y143.000 E105.34171
G1 X95.889 Y142.580 E105.39181
G1 X96.012 Y142.176 E105.44192
G1 X96.211 Y141.804 E105.49201
G1 X96.478 Y141.478 E105.54212
G1 X96.804 Y141.211 E105.59222
G1 X97.176 Y141.012 E105.64232
G1 X97.580 Y140.889 E105.69242
G1 X98.000 Y140.848 E105.74252 F1800.000
G1 X98.420 Y140.889 E105.79262
G1 X98.824 Y141.012 E105.84273
G1 X99.196 Y141.211 E105.89283
G1 X99.522 Y141.478 E105.94293
G1 X99.789 Y141.804 E105.99303
G1 X99.988 Y142.176 E106.04313
G1 X100.111 Y142.580 E106.09324
G1 X100.152 Y143.000 E106.14334
G1 X100.111 Y143.420 E106.19343
G1 X99.988 Y143.824 E106.24354
G1 X99.789 Y144.196 E106.29364
G1 X99.522 Y144.522 E106.34374
G1 X99.196 Y144.789 E106.39385
G1 X98.824 Y144.988 E106.44394
G1 X98.420 Y145.111 E106.49405
G1 X98.000 Y145.152 E106.54415
G1 X97.698 Y145.122 E106.58024
G1 X97.369 Y145.413 F7800.000
G1 E104.58024 F2400.00000
G92 E0
G1 X98.000 Y140.245 F7800.000
G1 X111.879 Y129.121 F7800.000
G1 X100.430 Y114.974 F7800.000
G1 X98.827 Y114.658 F7800.000
G1 X98.063 Y114.395 F7800.000
G1 X98.000 Y113.755 F7800.000
G1 X98.000 Y113.152 F7800.000
G1 E2.00000 F2400.00000
G1 X97.580 Y113.111 E2.05010 F1800.000
G1 X97.151 Y112.981 E2.10331
G1 X96.802 Y112.787 E2.15070
G1 X96.478 Y112.522 E2.20046
G1 X96.211 Y112.196 E2.25057
G1 X96.012 Y111.824 E2.30067
G1 X95.889 Y111.420 E2.35077
G1 X95.848 Y111.000 E2.40087
G1 X95.889 Y110.580 E2.45097
G1 X96.012 Y110.176 E2.50108
G1 X96.211 Y109.804 E2.55117
G1 X96.478 Y109.478 E2.60128
G1 X96.804 Y109.211 E2.65138
G1 X97.176 Y109.012 E2.70148
G1 X97.580 Y108.889 E2.75158
G1 X98.000 Y108.848 E2.80168 F1800.000
G1 X98.420 Y108.889 E2.85178
G1 X98.824 Y109.012 E2.90189
G1 X99.196 Y109.211 E2.95198
G1 X99.522 Y109.478 E3.00209
G1 X99.787 Y109.802 E3.05185
G1 X99.981 Y110.151 E3.09924
G1 X100.111 Y110.580 E3.15245
G1 X100.152 Y111.000 E3.20255
G1 X100.111 Y111.420 E3.25265
G1 X99.988 Y111.824 E3.30276
G1 X99.789 Y112.196 E3.35285
G1 X99.522 Y112.522 E3.40296
G1 X99.196 Y112.789 E3.45306
G1 X98.824 Y112.988 E3.50316
G1 X98.420 Y113.111 E3.55326
G1 X98.060 Y113.146 E3.59624
G1 X97.789 Y113.492 F7800.000
G1 X95.007 Y112.088 F7800.000
G1 X73.149 Y90.230 E7.26742 F1800.000
G1 X77.230 Y86.149 E7.95289
G1 X99.088 Y108.007 E11.62407
G1 X98.916 Y108.294 E11.66378
G1 X98.560 Y108.186 E11.70800
G1 X98.000 Y108.130 E11.77480
G1 X97.440 Y108.186 E11.84161
G1 X96.902 Y108.349 E11.90843
G1 X96.406 Y108.614 E11.97524
G1 X95.971 Y108.971 E12.04204
G1 X95.614 Y109.406 E12.10884
G1 X95.349 Y109.902 E12.17565
G1 X95.186 Y110.440 E12.24247
G1 X95.130 Y111.000 E12.30928
G1 X95.186 Y111.560 E12.37608
G1 X95.294 Y111.916 E12.42030
G1 X95.058 Y112.057 E12.45289
G1 X94.423 Y110.494 F7800.000
G1 X74.159 Y90.230 E15.85636 F1800.000
G1 X77.230 Y87.159 E16.37219
G1 X97.494 Y107.423 E19.77567
G1 X96.627 Y107.686 E19.88326
G1 X96.007 Y108.017 E19.96678
G1 X95.464 Y108.464 E20.05029
G1 X95.017 Y109.007 E20.13379
G1 X94.686 Y109.627 E20.21731
G1 X94.440 Y110.437 E20.31778
G1 X95.594 Y112.625 F7800.000
G1 X96.226 Y113.352 F7800.000
G1 X111.879 Y124.879 F7800.000
G1 X126.026 Y113.430 F7800.000
G1 X126.342 Y111.827 F7800.000
G1 X126.605 Y111.063 F7800.000
G1 X127.245 Y111.000 F7800.000
G1 X127.848 Y111.000 F7800.000
G1 X127.889 Y110.580 E20.36788 F1800.000
G1 X128.012 Y110.176 E20.41798
G1 X128.211 Y109.804 E20.46808
G1 X128.478 Y109.478 E20.51818
G1 X128.804 Y109.211 E20.56829
G1 X129.176 Y109.012 E20.61838
G1 X129.580 Y108.889 E20.66849
G1 X130.000 Y108.848 E20.71859 F1800.000
G1 X130.420 Y108.889 E20.76869
G1 X130.824 Y109.012 E20.81879
G1 X131.196 Y109.211 E20.86889
G1 X131.522 Y109.478 E20.91900
G1 X131.789 Y109.804 E20.96910
G1 X131.988 Y110.176 E21.01920
G1 X132.111 Y110.580 E21.06930
G1 X132.152 Y111.000 E21.11940
G1 X132.111 Y111.420 E21.16950
G1 X131.988 Y111.824 E21.21961
G1 X131.789 Y112.196 E21.26970
G1 X131.522 Y112.522 E21.31981
G1 X131.196 Y112.789 E21.36991
G1 X130.824 Y112.988 E21.42001
G1 X130.420 Y113.111 E21.47011
G1 X130.000 Y113.152 E21.52021
G1 X129.580 Y113.111 E21.57031
G1 X129.176 Y112.988 E21.62042
G1 X128.804 Y112.789 E21.67052
G1 X128.478 Y112.522 E21.72062
G1 X128.211 Y112.196 E21.77072
G1 X128.012 Y111.824 E21.82082
G1 X127.889 Y111.420 E21.87093
G1 X127.854 Y111.060 E21.91390
G1 X127.508 Y110.789 F7800.000
G1 X114.000 Y122.919 F7800.000
G1 X127.007 Y109.912 E24.09851 F1800.000
G1 X127.294 Y110.084 E24.13823
G1 X127.186 Y110.440 E24.18244
G1 X127.130 Y111.000 E24.24925
G1 X127.186 Y111.560 E24.31605
G1 X127.349 Y112.098 E24.38287
G1 X127.614 Y112.594 E24.44968
G1 X127.971 Y113.029 E24.51649
G1 X128.406 Y113.386 E24.58329
G1 X128.902 Y113.651 E24.65010
G1 X129.440 Y113.814 E24.71692
G1 X130.000 Y113.870 E24.78372
G1 X130.560 Y113.814 E24.85053
G1 X130.916 Y113.706 E24.89474
G1 X131.088 Y113.993 E24.93446
G1 X118.081 Y127.000 E27.11907
G1 X131.088 Y140.007 E29.30369
G1 X130.916 Y140.294 E29.34340
G1 X130.560 Y140.186 E29.38762
G1 X130.000 Y140.130 E29.45442
G1 X129.440 Y140.186 E29.52123
G1 X128.902 Y140.349 E29.58805
G1 X128.406 Y140.614 E29.65486
G1 X127.971 Y140.971 E29.72166
G1 X127.614 Y141.406 E29.78847
G1 X127.349 Y141.902 E29.85527
G1 X127.186 Y142.440 E29.92209
G1 X127.130 Y143.000 E29.98890
G1 X127.186 Y143.560 E30.05570
G1 X127.294 Y143.916 E30.09992
G1 X127.007 Y144.088 E30.13963
G1 X114.000 Y131.081 E32.32425
G1 X100.993 Y144.088 E34.50886
G1 X100.706 Y143.916 E34.54858
G1 X100.814 Y143.560 E34.59279
G1 X100.870 Y143.000 E34.65960
G1 X100.814 Y142.440 E34.72640
G1 X100.651 Y141.902 E34.79322
G1 X100.386 Y141.406 E34.86003
G1 X100.029 Y140.971 E34.92684
G1 X99.594 Y140.614 E34.99364
G1 X99.098 Y140.349 E35.06045
G1 X98.560 Y140.186 E35.12727
G1 X98.000 Y140.130 E35.19407
G1 X97.440 Y140.186 E35.26088
G1 X97.084 Y140.294 E35.30509
