; generated by Slic3r 1.2.9 on 2015-12-30 at 07:02:28

; external perimeters extrusion width = 0.40mm
; perimeters extrusion width = 0.48mm
; infill extrusion width = 0.48mm
; solid infill extrusion width = 0.48mm
; top infill extrusion width = 0.48mm

M107
M190 S65 ; set bed temperature
M104 S205 ; set temperature
G28 ; home all axes
G1 Z5 F5000 ; lift nozzle

M109 S205 ; wait for temperature to be reached
G21 ; set units to millimeters
G90 ; use absolute coordinates
M82 ; use absolute distances for extrusion
G92 E0
G1 Z0.400 F7800.000
G1 E-2.00000 F2400.00000
G92 E0
G1 X63.962 Y63.962 F7800.000
G1 E2.00000 F2400.00000
G1 X64.296 Y63.646 E2.05460 F1800.000
G1 X68.391 Y60.054 E2.70152
G1 X72.703 Y56.725 E3.34850
G1 X76.860 Y53.901 E3.94540
G1 X81.542 Y51.116 E4.59234
G1 X81.911 Y50.913 E4.64243
G1 X86.771 Y48.452 E5.28934
G1 X91.384 Y46.456 E5.88627
G1 X96.504 Y44.598 E6.53322
G1 X96.905 Y44.468 E6.58332
G1 X102.140 Y42.961 E7.23025
G1 X107.459 Y41.786 E7.87722
G1 X112.841 Y40.946 E8.52413
G1 X117.845 Y40.474 E9.12106
G1 X123.289 Y40.289 E9.76800
G1 X123.730 Y40.290 E9.82043
G1 X129.155 Y40.474 E10.46501 F1800.000
G1 X134.577 Y40.999 E11.11201
G1 X139.955 Y41.865 E11.75897
G1 X145.268 Y43.066 E12.40590
G1 X150.496 Y44.598 E13.05287
G1 X155.616 Y46.456 E13.69981
G1 X160.611 Y48.631 E14.34677
G1 X165.089 Y50.913 E14.94365
G1 X169.784 Y53.675 E15.59060
G1 X174.297 Y56.725 E16.23753
G1 X178.609 Y60.054 E16.88450
G1 X182.704 Y63.646 E17.53145
G1 X186.566 Y67.490 E18.17857
G1 X189.536 Y70.839 E18.71023
G1 X190.743 Y72.807 E18.98445
G1 X191.214 Y75.279 E19.28326
G1 X191.214 Y178.721 E31.56859
G1 X190.817 Y180.996 E31.84282
G1 X189.536 Y183.161 E32.14163
G1 X186.565 Y186.511 E32.67345
G1 X183.011 Y190.065 E33.27033
G1 X178.934 Y193.677 E33.91729
G1 X174.638 Y197.027 E34.56424
G1 X170.140 Y200.099 E35.21120
G1 X165.458 Y202.884 E35.85814
G1 X160.611 Y205.369 E36.50509
G1 X155.617 Y207.544 E37.15204
G1 X155.205 Y207.706 E37.20452
G1 X150.097 Y209.531 E37.84882
G1 X145.268 Y210.934 E38.44597
G1 X139.955 Y212.135 E39.09291
G1 X134.577 Y213.001 E39.73987
G1 X134.158 Y213.054 E39.78998
G1 X128.734 Y213.553 E40.43692
G1 X123.292 Y213.711 E41.08358
G1 X118.266 Y213.553 E41.68076
G1 X112.842 Y213.054 E42.32770
G1 X112.423 Y213.001 E42.37781
G1 X107.459 Y212.215 E42.97468
G1 X107.026 Y212.131 E43.02707
G1 X101.732 Y210.934 E43.67173
G1 X96.905 Y209.532 E44.26861
G1 X91.776 Y207.699 E44.91556
G1 X91.383 Y207.544 E44.96566
G1 X86.771 Y205.548 E45.56253
G1 X86.374 Y205.360 E45.61476
G1 X81.542 Y202.884 E46.25959
G1 X77.216 Y200.325 E46.85646
G1 X76.843 Y200.088 E46.90893
G1 X72.362 Y197.027 E47.55348
G1 X68.066 Y193.677 E48.20045
G1 X64.296 Y190.354 E48.79734
G1 X60.435 Y186.511 E49.44429
G1 X56.836 Y182.449 E50.08886
G1 X56.554 Y182.109 E50.14134
G1 X53.473 Y178.137 E50.73833
G1 X50.401 Y173.640 E51.38519
G1 X47.616 Y168.958 E52.03213
G1 X45.141 Y164.128 E52.67669
G1 X44.952 Y163.729 E52.72918
G1 X42.956 Y159.116 E53.32605
G1 X41.098 Y153.996 E53.97300
G1 X40.968 Y153.595 E54.02310
G1 X39.461 Y148.360 E54.67004
G1 X38.365 Y143.455 E55.26692
G1 X37.499 Y138.077 E55.91388
G1 X36.974 Y132.655 E56.56087
G1 X36.790 Y127.231 E57.20539
G1 X36.789 Y126.789 E57.25789
G1 X36.947 Y121.766 E57.85477
G1 X37.446 Y116.341 E58.50175
G1 X38.286 Y110.959 E59.14867
G1 X38.365 Y110.545 E59.19877
G1 X39.566 Y105.232 E59.84571
G1 X40.968 Y100.405 E60.44259
G1 X42.801 Y95.276 E61.08957
G1 X44.944 Y90.289 E61.73415
G1 X45.131 Y89.889 E61.78659
G1 X47.616 Y85.042 E62.43355
G1 X50.175 Y80.716 E63.03042
G1 X53.225 Y76.203 E63.67737
G1 X53.473 Y75.862 E63.72747
G1 X56.823 Y71.566 E64.37442
G1 X60.146 Y67.796 E64.97130
G1 X63.919 Y64.004 E65.60662
G1 E63.60662 F2400.00000
G92 E0
G1 X65.932 Y65.932 F7800.000
G1 E2.00000 F2400.00000
G1 X70.050 Y62.293 E2.65264 F1800.000
G1 X74.218 Y59.065 E3.27884
G1 X78.477 Y56.170 E3.89039
G1 X83.122 Y53.424 E4.53121
G1 X87.821 Y51.034 E5.15738
G1 X92.547 Y48.989 E5.76893
G1 X97.624 Y47.161 E6.40977
G1 X102.688 Y45.694 E7.03596
G1 X107.834 Y44.547 E7.66216
G1 X113.042 Y43.726 E8.28831
G1 X118.169 Y43.242 E8.89988
G1 X123.643 Y43.075 E9.55038
G1 X128.831 Y43.242 E10.16686 F1800.000
G1 X134.080 Y43.742 E10.79308
G1 X139.166 Y44.547 E11.40460
G1 X144.312 Y45.694 E12.03079
G1 X149.494 Y47.199 E12.67166
G1 X154.453 Y48.989 E13.29781
G1 X159.291 Y51.086 E13.92399
G1 X163.879 Y53.424 E14.53554
G1 X168.419 Y56.104 E15.16172
G1 X172.781 Y59.065 E15.78788
G1 X176.950 Y62.293 E16.41408
G1 X180.908 Y65.777 E17.04028
G1 X184.723 Y69.593 E17.68114
G1 X187.920 Y73.219 E18.25528
G1 X188.428 Y74.561 E18.42575
G1 X188.428 Y179.438 E30.88151
G1 X187.921 Y180.781 E31.05191
G1 X184.639 Y184.498 E31.64084
G1 X180.998 Y188.138 E32.25233
G1 X177.045 Y191.628 E32.87858
G1 X172.881 Y194.863 E33.50475
G1 X168.523 Y197.829 E34.13091
G1 X163.986 Y200.517 E34.75715
G1 X159.291 Y202.914 E35.38330
G1 X154.454 Y205.011 E36.00945
G1 X149.377 Y206.839 E36.65020
G1 X144.432 Y208.276 E37.26187
G1 X139.288 Y209.430 E37.88800
G1 X134.080 Y210.258 E38.51426
G1 X128.707 Y210.766 E39.15522
G1 X123.358 Y210.925 E39.79083
G1 X118.169 Y210.758 E40.40737
G1 X113.042 Y210.274 E41.01901
G1 X107.713 Y209.430 E41.65976
G1 X102.687 Y208.306 E42.27139
G1 X97.623 Y206.839 E42.89756
G1 X92.547 Y205.011 E43.53838
G1 X87.637 Y202.877 E44.17413
G1 X83.013 Y200.516 E44.79082
G1 X78.581 Y197.896 E45.40223
G1 X74.119 Y194.863 E46.04307
G1 X70.050 Y191.707 E46.65463
G1 X66.092 Y188.223 E47.28081
G1 X62.277 Y184.408 E47.92162
G1 X58.872 Y180.545 E48.53320
G1 X55.687 Y176.446 E49.14968
G1 X52.671 Y172.023 E49.78552
G1 X49.983 Y167.487 E50.41173
G1 X47.533 Y162.679 E51.05257
G1 X45.489 Y157.953 E51.66410
G1 X43.699 Y152.994 E52.29025
G1 X42.194 Y147.812 E52.93112
G1 X41.070 Y142.787 E53.54265
G1 X40.242 Y137.580 E54.16884
G1 X39.742 Y132.331 E54.79505
G1 X39.572 Y126.938 E55.43588
G1 X39.742 Y121.669 E56.06205
G1 X40.226 Y116.542 E56.67361
G1 X41.070 Y111.213 E57.31443
G1 X42.224 Y106.068 E57.94062
G1 X43.661 Y101.124 E58.55215
G1 X45.443 Y96.161 E59.17835
G1 X47.586 Y91.209 E59.81918
G1 X49.983 Y86.513 E60.44537
G1 X52.670 Y81.977 E61.07154
G1 X55.565 Y77.718 E61.68308
G1 X58.872 Y73.455 E62.32392
G1 X62.277 Y69.592 E62.93545
G1 X65.889 Y65.974 E63.54268
G1 X66.437 Y66.437 F7800.000
G1 X70.496 Y62.851 E64.18600 F1800.000
G1 X74.547 Y59.708 E64.79489
G1 X78.869 Y56.767 E65.41575
G1 X83.456 Y54.055 E66.04859
G1 X88.115 Y51.685 E66.66943
G1 X92.820 Y49.648 E67.27831
G1 X97.834 Y47.843 E67.91116
G1 X102.757 Y46.413 E68.52004
G1 X107.858 Y45.270 E69.14089
G1 X113.191 Y44.429 E69.78209
G1 X118.325 Y43.947 E70.39459
G1 X123.550 Y43.786 E71.01542
G1 X128.775 Y43.954 E71.63628 F1800.000
G1 X133.879 Y44.436 E72.24517
G1 X139.043 Y45.251 E72.86603
G1 X144.146 Y46.388 E73.48689
G1 X149.263 Y47.875 E74.11976
G1 X154.180 Y49.648 E74.74059
G1 X158.976 Y51.727 E75.36144
G1 X163.544 Y54.055 E75.97032
G1 X168.046 Y56.713 E76.59118
G1 X172.371 Y59.649 E77.21201
G1 X176.503 Y62.850 E77.83289
G1 X180.427 Y66.305 E78.45375
G1 X184.126 Y70.000 E79.07467
G1 X187.298 Y73.593 E79.64396
G1 X187.714 Y74.692 E79.78343
G1 X187.714 Y179.308 E92.20821
G1 X187.299 Y180.406 E92.34762
G1 X184.126 Y184.001 E92.91707
G1 X180.501 Y187.625 E93.52590
G1 X176.581 Y191.085 E94.14681
G1 X172.453 Y194.292 E94.76766
G1 X168.131 Y197.232 E95.38849
G1 X163.633 Y199.896 E96.00939
G1 X158.976 Y202.273 E96.63022
G1 X154.180 Y204.351 E97.25105
G1 X149.167 Y206.156 E97.88383
G1 X144.243 Y207.587 E98.49281
G1 X139.143 Y208.730 E99.11362
G1 X133.979 Y209.551 E99.73454
G1 X128.674 Y210.053 E100.36748
G1 X123.380 Y210.212 E100.99648
G1 X118.225 Y210.046 E101.60902
G1 X113.120 Y209.564 E102.21797
G1 X107.858 Y208.730 E102.85074
G1 X102.854 Y207.612 E103.45969
G1 X97.833 Y206.156 E104.08054
G1 X92.820 Y204.352 E104.71337
G1 X87.961 Y202.241 E105.34248
G1 X83.367 Y199.896 E105.95514
G1 X78.955 Y197.287 E106.56391
G1 X74.547 Y194.292 E107.19676
G1 X70.496 Y191.149 E107.80564
G1 X66.573 Y187.695 E108.42650
G1 X62.805 Y183.927 E109.05932
G1 X59.415 Y180.081 E109.66823
G1 X56.251 Y176.008 E110.28073
G1 X53.267 Y171.631 E110.90990
G1 X50.604 Y167.133 E111.53078
G1 X48.184 Y162.385 E112.16363
G1 X46.148 Y157.680 E112.77249
G1 X44.375 Y152.763 E113.39332
G1 X42.888 Y147.646 E114.02619
G1 X41.770 Y142.642 E114.63506
G1 X40.960 Y137.549 E115.24754
G1 X40.454 Y132.275 E115.87678
G1 X40.286 Y126.949 E116.50962
G1 X40.454 Y121.725 E117.13046
G1 X40.936 Y116.620 E117.73936
G1 X41.770 Y111.358 E118.37219
G1 X42.913 Y106.257 E118.99304
G1 X44.343 Y101.334 E119.60192
G1 X46.111 Y96.414 E120.22279
G1 X48.227 Y91.524 E120.85562
G1 X50.604 Y86.867 E121.47648
G1 X53.267 Y82.369 E122.09733
G1 X56.149 Y78.129 E122.70620
G1 X59.415 Y73.919 E123.33905
G1 X62.805 Y70.073 E123.94792
G1 X66.394 Y66.479 E124.55115
G1 X66.942 Y66.942 F7800.000
G1 X70.943 Y63.408 E125.18515 F1800.000
G1 X74.976 Y60.280 E125.79137
G1 X79.261 Y57.364 E126.40691
G1 X83.790 Y54.686 E127.03175
G1 X88.409 Y52.335 E127.64727
G1 X93.093 Y50.308 E128.25348
G1 X98.044 Y48.526 E128.87834
G1 X103.021 Y47.083 E129.49387
G1 X108.080 Y45.954 E130.10941
G1 X113.199 Y45.146 E130.72492
G1 X118.281 Y44.666 E131.33114
G1 X123.598 Y44.502 E131.96301
G1 X128.719 Y44.666 E132.57150 F1800.000
G1 X133.879 Y45.156 E133.18705
G1 X138.920 Y45.954 E133.79325
G1 X143.979 Y47.083 E134.40878
G1 X149.031 Y48.550 E135.03365
G1 X153.907 Y50.308 E135.64916
G1 X158.662 Y52.369 E136.26468
G1 X163.279 Y54.724 E136.88022
G1 X167.672 Y57.322 E137.48643
G1 X171.960 Y60.233 E138.10194
G1 X176.057 Y63.408 E138.71748
G1 X179.946 Y66.834 E139.33301
G1 X183.613 Y70.497 E139.94859
G1 X186.677 Y73.968 E140.49843
G1 X187.000 Y74.822 E140.60691
G1 X187.000 Y179.178 E153.00069
G1 X186.677 Y180.032 E153.10913
G1 X183.703 Y183.405 E153.64317
G1 X180.004 Y187.113 E154.26525
G1 X176.117 Y190.542 E154.88082
G1 X172.024 Y193.721 E155.49634
G1 X167.739 Y196.636 E156.11185
G1 X163.279 Y199.276 E156.72741
G1 X158.662 Y201.631 E157.34292
G1 X153.907 Y203.692 E157.95843
G1 X148.957 Y205.474 E158.58323
G1 X144.055 Y206.898 E159.18952
G1 X138.998 Y208.031 E159.80501
G1 X133.879 Y208.844 E160.42059
G1 X128.640 Y209.339 E161.04552
G1 X123.402 Y209.498 E161.66791
G1 X118.281 Y209.334 E162.27644
G1 X113.199 Y208.854 E162.88271
G1 X108.003 Y208.031 E163.50750
G1 X103.021 Y206.917 E164.11377
G1 X98.043 Y205.474 E164.72929
G1 X93.093 Y203.692 E165.35413
G1 X88.286 Y201.604 E165.97661
G1 X83.721 Y199.276 E166.58524
G1 X79.328 Y196.678 E167.19136
G1 X74.976 Y193.721 E167.81621
G1 X70.943 Y190.592 E168.42243
G1 X67.054 Y187.166 E169.03797
G1 X63.334 Y183.446 E169.66280
G1 X59.958 Y179.617 E170.26904
G1 X56.816 Y175.571 E170.87752
G1 X53.864 Y171.239 E171.50006
G1 X51.224 Y166.779 E172.11560
G1 X48.835 Y162.091 E172.74046
G1 X46.808 Y157.407 E173.34666
G1 X45.050 Y152.531 E173.96217
G1 X43.583 Y147.479 E174.58704
G1 X42.469 Y142.497 E175.19324
G1 X41.656 Y137.379 E175.80878
G1 X41.166 Y132.219 E176.42432
G1 X41.000 Y126.961 E177.04917
G1 X41.166 Y121.781 E177.66469
G1 X41.646 Y116.699 E178.27091
G1 X42.469 Y111.503 E178.89575
G1 X43.602 Y106.445 E179.51128
G1 X45.026 Y101.544 E180.11749
G1 X46.779 Y96.666 E180.73303
G1 X48.869 Y91.838 E181.35787
G1 X51.224 Y87.221 E181.97341
G1 X53.864 Y82.761 E182.58892
G1 X56.733 Y78.540 E183.19513
G1 X59.958 Y74.383 E183.81999
G1 X63.333 Y70.554 E184.42620
G1 X66.899 Y66.984 E185.02543
G1 X67.447 Y67.447 F7800.000
G1 X71.390 Y63.965 E185.65011 F1800.000
G1 X75.405 Y60.851 E186.25366
G1 X79.654 Y57.961 E186.86387
G1 X84.124 Y55.317 E187.48072
G1 X88.703 Y52.986 E188.09092
G1 X93.367 Y50.968 E188.69446
G1 X98.254 Y49.209 E189.31132
G1 X103.134 Y47.791 E189.91487
G1 X108.147 Y46.668 E190.52507
G1 X113.325 Y45.851 E191.14763
G1 X118.393 Y45.374 E191.75213
G1 X123.528 Y45.215 E192.36231
G1 X128.663 Y45.378 E192.97252 F1800.000
G1 X133.723 Y45.856 E193.57607
G1 X138.798 Y46.658 E194.18627
G1 X143.812 Y47.777 E194.79647
G1 X148.800 Y49.226 E195.41335
G1 X153.633 Y50.968 E196.02353
G1 X158.348 Y53.010 E196.63373
G1 X162.876 Y55.317 E197.23728
G1 X167.299 Y57.931 E197.84748
G1 X171.549 Y60.818 E198.45767
G1 X175.610 Y63.965 E199.06787
G1 X179.466 Y67.362 E199.67808
G1 X183.100 Y70.994 E200.28832
G1 X186.055 Y74.342 E200.81870
G1 X186.285 Y74.953 E200.89619
G1 X186.285 Y179.047 E213.25899
G1 X186.055 Y179.657 E213.33644
G1 X183.138 Y182.966 E213.86025
G1 X179.507 Y186.600 E214.47043
G1 X175.654 Y189.999 E215.08066
G1 X171.595 Y193.149 E215.69086
G1 X167.347 Y196.039 E216.30104
G1 X162.925 Y198.656 E216.91126
G1 X158.348 Y200.990 E217.52146
G1 X153.633 Y203.032 E218.13164
G1 X148.747 Y204.791 E218.74846
G1 X143.866 Y206.209 E219.35206
G1 X138.853 Y207.331 E219.96224
G1 X133.778 Y208.137 E220.57247
G1 X128.607 Y208.626 E221.18939
G1 X123.424 Y208.784 E221.80517
G1 X118.337 Y208.622 E222.40969
G1 X113.277 Y208.144 E223.01328
G1 X108.148 Y207.332 E223.63010
G1 X103.188 Y206.223 E224.23368
G1 X98.253 Y204.791 E224.84388
G1 X93.367 Y203.032 E225.46073
G1 X88.610 Y200.968 E226.07657
G1 X84.075 Y198.655 E226.68116
G1 X79.701 Y196.069 E227.28464
G1 X75.405 Y193.149 E227.90151
G1 X71.390 Y190.035 E228.50506
G1 X67.534 Y186.638 E229.11526
G1 X63.862 Y182.966 E229.73211
G1 X60.501 Y179.154 E230.33567
G1 X57.380 Y175.133 E230.94017
G1 X54.461 Y170.847 E231.55605
G1 X51.844 Y166.425 E232.16626
G1 X49.486 Y161.797 E232.78313
G1 X47.468 Y157.133 E233.38666
G1 X45.726 Y152.300 E233.99684
G1 X44.277 Y147.312 E234.61372
G1 X43.168 Y142.353 E235.21726
G1 X42.371 Y137.326 E235.82174
G1 X41.878 Y132.163 E236.43767
G1 X41.715 Y126.972 E237.05452
G1 X41.878 Y121.837 E237.66472
G1 X42.356 Y116.777 E238.26827
G1 X43.168 Y111.647 E238.88512
G1 X44.291 Y106.634 E239.49533
G1 X45.709 Y101.754 E240.09887
G1 X47.448 Y96.919 E240.70908
G1 X49.510 Y92.152 E241.32593
G1 X51.844 Y87.575 E241.93613
G1 X54.461 Y83.154 E242.54632
G1 X57.318 Y78.950 E243.14987
G1 X60.501 Y74.846 E243.76673
G1 X63.862 Y71.034 E244.37028
G1 X67.404 Y67.489 E244.96551
G1 X67.952 Y67.952 F7800.000
G1 X71.836 Y64.523 E245.58088 F1800.000
G1 X75.834 Y61.422 E246.18176
G1 X80.046 Y58.558 E246.78663
G1 X84.458 Y55.949 E247.39549
G1 X88.997 Y53.637 E248.00037
G1 X93.640 Y51.628 E248.60124
G1 X98.464 Y49.891 E249.21011
G1 X103.355 Y48.472 E249.81499
G1 X108.325 Y47.362 E250.41987
G1 X113.356 Y46.566 E251.02473
G1 X118.393 Y46.090 E251.62562
G1 X123.554 Y45.930 E252.23885
G1 X128.607 Y46.090 E252.83934 F1800.000
G1 X133.678 Y46.570 E253.44423
G1 X138.708 Y47.368 E254.04910
G1 X143.645 Y48.472 E254.64997
G1 X148.569 Y49.902 E255.25885
G1 X153.329 Y51.616 E255.85972
G1 X158.003 Y53.637 E256.46459
G1 X162.542 Y55.949 E257.06947
G1 X166.926 Y58.540 E257.67434
G1 X171.139 Y61.402 E258.27920
G1 X175.164 Y64.523 E258.88408
G1 X178.985 Y67.890 E259.48896
G1 X182.587 Y71.491 E260.09385
G1 X185.433 Y74.717 E260.60478
G1 X185.571 Y75.083 E260.65127
G1 X185.571 Y178.917 E272.98308
G1 X185.433 Y179.283 E273.02955
G1 X182.610 Y182.485 E273.53655
G1 X179.009 Y186.087 E274.14140
G1 X175.190 Y189.456 E274.74630
G1 X171.166 Y192.578 E275.35117
G1 X166.954 Y195.442 E275.95603
G1 X162.571 Y198.035 E276.56091
G1 X158.034 Y200.348 E277.16578
G1 X153.360 Y202.372 E277.77064
G1 X148.501 Y204.119 E278.38386
G1 X143.645 Y205.528 E278.98439
G1 X138.708 Y206.632 E279.58525
G1 X133.678 Y207.430 E280.19014
G1 X128.573 Y207.912 E280.79904
G1 X123.447 Y208.070 E281.40822
G1 X118.393 Y207.910 E282.00873
G1 X113.356 Y207.434 E282.60963
G1 X108.292 Y206.632 E283.21848
G1 X103.355 Y205.528 E283.81938
G1 X98.464 Y204.108 E284.42425
G1 X93.640 Y202.372 E285.03311
G1 X88.934 Y200.332 E285.64232
G1 X84.458 Y198.051 E286.23886
G1 X80.074 Y195.460 E286.84371
G1 X75.834 Y192.578 E287.45258
G1 X71.836 Y189.477 E288.05347
G1 X68.015 Y186.110 E288.65834
G1 X64.390 Y182.485 E289.26720
G1 X61.044 Y178.690 E289.86810
G1 X57.944 Y174.695 E290.46859
G1 X55.058 Y170.454 E291.07782
G1 X52.465 Y166.071 E291.68270
G1 X50.137 Y161.503 E292.29158
G1 X48.116 Y156.829 E292.89644
G1 X46.402 Y152.069 E293.49731
G1 X44.972 Y147.145 E294.10619
G1 X43.868 Y142.208 E294.70706
G1 X43.070 Y137.178 E295.31193
G1 X42.590 Y132.107 E295.91682
