; generated by Slic3r 1.2.9 on 2015-12-31 at 11:36:58

; external perimeters extrusion width = 0.40mm
; perimeters extrusion width = 0.48mm
; infill extrusion width = 0.48mm
; solid infill extrusion width = 0.48mm
; top infill extrusion width = 0.48mm

M107
M190 S65 ; set bed temperature
M104 S205 ; set temperature
G28 ; home all axes
G1 Z5 F5000 ; lift nozzle

M109 S205 ; wait for temperature to be reached
G21 ; set units to millimeters
G90 ; use absolute coordinates
M82 ; use absolute distances for extrusion
G92 E0
G1 Z0.400 F7800.000
G1 E-2.00000 F2400.00000
G92 E0
G1 X56.825 Y67.252 F7800.000
G1 E2.00000 F2400.00000
G1 X58.714 Y65.925 E2.27422 F1800.000
G1 X61.573 Y65.286 E2.62209
G1 X166.427 Y65.286 E15.07514
G1 X168.702 Y65.683 E15.34937
G1 X171.175 Y67.252 E15.69724 F1800.000
G1 X173.748 Y69.825 E16.12936
G1 X175.075 Y71.714 E16.40359
G1 X175.714 Y74.573 E16.75146
G1 X175.714 Y179.427 E29.20451
G1 X175.317 Y181.702 E29.47873
G1 X173.748 Y184.175 E29.82660
G1 X171.175 Y186.748 E30.25873
G1 X169.286 Y188.075 E30.53295
G1 X166.427 Y188.714 E30.88082
G1 X61.573 Y188.714 E43.33387
G1 X59.298 Y188.317 E43.60810
G1 X56.825 Y186.748 E43.95597
G1 X54.252 Y184.175 E44.38809
G1 X52.925 Y182.286 E44.66232
G1 X52.286 Y179.427 E45.01019
G1 X52.286 Y74.573 E57.46324
G1 X52.683 Y72.298 E57.73746
G1 X54.252 Y69.825 E58.08533
G1 X56.783 Y67.295 E58.51034
G1 E56.51034 F2400.00000
G92 E0
G1 X58.795 Y69.223 F7800.000
G1 E2.00000 F2400.00000
G1 X59.348 Y68.670 E2.09279 F1800.000
G1 X60.792 Y68.072 E2.27837
G1 X75.627 Y68.072 E4.04031
G1 X77.928 Y70.373 E4.42677
G1 X77.928 Y91.654 E6.95418 F1800.000
G1 X78.346 Y92.072 E7.02445
G1 X149.654 Y92.072 E15.49330
G1 X150.072 Y91.654 E15.56357
G1 X150.072 Y70.373 E18.09098
G1 X152.373 Y68.072 E18.47744
G1 X167.209 Y68.072 E20.23937
G1 X168.652 Y68.670 E20.42496
G1 X172.330 Y72.348 E21.04267
G1 X172.928 Y73.791 E21.22825
G1 X172.928 Y180.209 E33.86688
G1 X172.330 Y181.652 E34.05247
G1 X168.652 Y185.330 E34.67018
G1 X167.209 Y185.928 E34.85576
G1 X152.373 Y185.928 E36.61770
G1 X150.072 Y183.627 E37.00415
G1 X150.072 Y162.346 E39.53157
G1 X149.654 Y161.928 E39.60183
G1 X78.346 Y161.928 E48.07069
G1 X77.928 Y162.346 E48.14095
G1 X77.928 Y183.627 E50.66837
G1 X75.627 Y185.928 E51.05482
G1 X60.791 Y185.928 E52.81676
G1 X59.348 Y185.330 E53.00234
G1 X55.670 Y181.652 E53.62005
G1 X55.072 Y180.208 E53.80564
G1 X55.072 Y73.791 E66.44427
G1 X55.670 Y72.348 E66.62985
G1 X58.753 Y69.265 E67.14765
G1 X59.300 Y69.728 F7800.000
G1 X59.752 Y69.276 E67.22357 F1800.000
G1 X60.934 Y68.786 E67.37541
G1 X75.331 Y68.786 E69.08534
G1 X77.214 Y70.669 E69.40153 F1800.000
G1 X77.214 Y92.368 E71.97863
G1 X77.632 Y92.786 E72.04890
G1 X150.368 Y92.786 E80.68739
G1 X150.786 Y92.368 E80.75765
G1 X150.786 Y70.669 E83.33475
G1 X152.669 Y68.786 E83.65094
G1 X167.066 Y68.786 E85.36088
G1 X168.248 Y69.276 E85.51272
G1 X171.724 Y72.752 E86.09668
G1 X172.214 Y73.934 E86.24852
G1 X172.214 Y180.066 E98.85342
G1 X171.724 Y181.248 E99.00526
G1 X168.248 Y184.724 E99.58922
G1 X167.066 Y185.214 E99.74106
G1 X152.669 Y185.214 E101.45100
G1 X150.786 Y183.331 E101.76719
G1 X150.786 Y161.632 E104.34429
G1 X150.368 Y161.214 E104.41455
G1 X77.632 Y161.214 E113.05304
G1 X77.214 Y161.632 E113.12331
G1 X77.214 Y183.331 E115.70041
G1 X75.331 Y185.214 E116.01660
G1 X60.934 Y185.214 E117.72653
G1 X59.752 Y184.724 E117.87837
G1 X56.276 Y181.248 E118.46234
G1 X55.786 Y180.066 E118.61418
G1 X55.786 Y73.934 E131.21907
G1 X56.276 Y72.752 E131.37091
G1 X59.258 Y69.770 E131.87184
G1 X59.805 Y70.233 F7800.000
G1 X60.157 Y69.881 E131.93089 F1800.000
G1 X61.076 Y69.500 E132.04898
G1 X75.035 Y69.500 E133.70691
G1 X76.500 Y70.965 E133.95284
G1 X76.500 Y93.082 E136.57962 F1800.000
G1 X76.918 Y93.500 E136.64989
G1 X151.082 Y93.500 E145.45801
G1 X151.500 Y93.082 E145.52828
G1 X151.500 Y70.965 E148.15506
G1 X152.965 Y69.500 E148.40099
G1 X166.924 Y69.500 E150.05892
G1 X167.843 Y69.881 E150.17702
G1 X171.119 Y73.157 E150.72724
G1 X171.500 Y74.076 E150.84534
G1 X171.500 Y179.924 E163.41649
G1 X171.119 Y180.843 E163.53459
G1 X167.843 Y184.119 E164.08481
G1 X166.924 Y184.500 E164.20291
G1 X152.965 Y184.500 E165.86084
G1 X151.500 Y183.035 E166.10677
G1 X151.500 Y160.918 E168.73355
G1 X151.082 Y160.500 E168.80382
G1 X76.918 Y160.500 E177.61194
G1 X76.500 Y160.918 E177.68220
G1 X76.500 Y183.035 E180.30899
G1 X75.035 Y184.500 E180.55491
G1 X61.076 Y184.500 E182.21285
G1 X60.157 Y184.119 E182.33094
G1 X56.881 Y180.843 E182.88117
G1 X56.500 Y179.924 E182.99927
G1 X56.500 Y74.076 E195.57042
G1 X56.881 Y73.157 E195.68851
G1 X59.763 Y70.275 E196.17257
G1 X60.310 Y70.738 F7800.000
G1 X60.561 Y70.486 E196.21474 F1800.000
G1 X61.218 Y70.215 E196.29910
G1 X74.740 Y70.215 E197.90503
G1 X75.785 Y71.260 E198.08069 F1800.000
G1 X75.785 Y93.796 E200.75716
G1 X76.204 Y94.215 E200.82742
G1 X151.796 Y94.215 E209.80518
G1 X152.215 Y93.796 E209.87544
G1 X152.215 Y71.260 E212.55191
G1 X153.260 Y70.215 E212.72757
G1 X166.782 Y70.215 E214.33350
G1 X167.439 Y70.486 E214.41786
G1 X170.514 Y73.561 E214.93434
G1 X170.785 Y74.218 E215.01869
G1 X170.785 Y179.782 E227.55610
G1 X170.514 Y180.439 E227.64046
G1 X167.439 Y183.514 E228.15694
G1 X166.782 Y183.785 E228.24130
G1 X153.260 Y183.785 E229.84722
G1 X152.215 Y182.740 E230.02289
G1 X152.215 Y160.204 E232.69935
G1 X151.796 Y159.785 E232.76962
G1 X76.204 Y159.785 E241.74738
G1 X75.785 Y160.204 E241.81764
G1 X75.785 Y182.740 E244.49411
G1 X74.740 Y183.785 E244.66977
G1 X61.218 Y183.785 E246.27570
G1 X60.561 Y183.514 E246.36005
G1 X57.486 Y180.439 E246.87654
G1 X57.215 Y179.782 E246.96089
G1 X57.215 Y74.218 E259.49830
G1 X57.486 Y73.561 E259.58266
G1 X60.268 Y70.780 E260.04983
G1 X60.815 Y71.243 F7800.000
G1 X60.966 Y71.092 E260.07514 F1800.000
G1 X61.360 Y70.929 E260.12575
G1 X74.444 Y70.929 E261.67968
G1 X75.071 Y71.556 E261.78508
G1 X75.071 Y94.510 E264.51123 F1800.000
G1 X75.490 Y94.929 E264.58149
G1 X152.510 Y94.929 E273.72889
G1 X152.929 Y94.510 E273.79915
G1 X152.929 Y71.556 E276.52530
G1 X153.556 Y70.929 E276.63070
G1 X166.640 Y70.929 E278.18462
G1 X167.034 Y71.092 E278.23524
G1 X169.908 Y73.966 E278.71798
G1 X170.071 Y74.360 E278.76859
G1 X170.071 Y179.640 E291.27226
G1 X169.908 Y180.034 E291.32287
G1 X167.034 Y182.908 E291.80561
G1 X166.640 Y183.071 E291.85622
G1 X153.556 Y183.071 E293.41015
G1 X152.929 Y182.444 E293.51554
G1 X152.929 Y159.490 E296.24170
G1 X152.510 Y159.071 E296.31196
G1 X75.490 Y159.071 E305.45935
G1 X75.071 Y159.490 E305.52962
G1 X75.071 Y182.444 E308.25577
G1 X74.444 Y183.071 E308.36117
G1 X61.360 Y183.071 E309.91509
G1 X60.966 Y182.908 E309.96571
G1 X58.092 Y180.034 E310.44845
G1 X57.929 Y179.640 E310.49906
G1 X57.929 Y74.360 E323.00272
G1 X58.092 Y73.966 E323.05334
G1 X60.773 Y71.285 E323.50364
G1 X61.320 Y71.748 F7800.000
G1 X61.371 Y71.697 E323.51208 F1800.000
G1 X61.502 Y71.643 E323.52895
G1 X74.148 Y71.643 E325.03087
G1 X74.357 Y71.852 E325.06600 F1800.000
G1 X74.357 Y95.225 E327.84184
G1 X74.775 Y95.643 E327.91211
G1 X153.225 Y95.643 E337.22913
G1 X153.643 Y95.225 E337.29940
G1 X153.643 Y71.852 E340.07524
G1 X153.852 Y71.643 E340.11037
G1 X166.498 Y71.643 E341.61229
G1 X166.629 Y71.697 E341.62916
G1 X169.303 Y74.371 E342.07816
G1 X169.357 Y74.502 E342.09503
G1 X169.357 Y179.498 E354.56495
G1 X169.303 Y179.629 E354.58182
G1 X166.629 Y182.303 E355.03082
G1 X166.498 Y182.357 E355.04769
G1 X153.852 Y182.357 E356.54961
G1 X153.643 Y182.148 E356.58474
G1 X153.643 Y158.775 E359.36058
G1 X153.225 Y158.357 E359.43084
G1 X74.775 Y158.357 E368.74787
G1 X74.357 Y158.775 E368.81814
G1 X74.357 Y182.148 E371.59397
G1 X74.148 Y182.357 E371.62911
G1 X61.502 Y182.357 E373.13103
G1 X61.371 Y182.303 E373.14790
G1 X58.697 Y179.629 E373.59689
G1 X58.643 Y179.498 E373.61377
G1 X58.643 Y74.502 E386.08369
G1 X58.697 Y74.371 E386.10056
G1 X61.278 Y71.790 E386.53400
G1 E384.53400 F2400.00000
G92 E0
G1 X154.400 Y157.600 F7800.000
G1 E2.00000 F2400.00000
G1 X73.600 Y157.600 E11.59623 F1800.000
G1 X73.600 Y181.600 E14.44659
G1 X61.738 Y181.600 E15.85533
G1 X59.400 Y179.262 E16.24810
G1 X59.400 Y74.738 E28.66179
G1 X61.738 Y72.400 E29.05456
G1 X73.600 Y72.400 E30.46330
G1 X73.600 Y96.400 E33.31366
G1 X154.400 Y96.400 E42.90989
G1 X154.400 Y72.400 E45.76025
G1 X166.262 Y72.400 E47.16899
G1 X168.600 Y74.738 E47.56176
G1 X168.600 Y179.262 E59.97545
G1 X166.262 Y181.600 E60.36822
G1 X154.400 Y181.600 E61.77696
G1 X154.400 Y157.660 E64.62020
G1 X154.400 Y157.200 F7800.000
G1 X155.114 Y156.886 F7800.000
G1 X72.886 Y156.886 E74.38606 F1800.000
G1 X72.886 Y180.886 E77.23642
G1 X62.034 Y180.886 E78.52521
G1 X60.114 Y178.966 E78.84771
G1 X60.114 Y75.034 E91.19114
G1 X62.034 Y73.114 E91.51365
G1 X72.886 Y73.114 E92.80243
G1 X72.886 Y97.114 E95.65280
G1 X155.114 Y97.114 E105.41866
G1 X155.114 Y73.114 E108.26902
G1 X165.966 Y73.114 E109.55781
G1 X167.886 Y75.034 E109.88031
G1 X167.886 Y178.966 E122.22375
G1 X165.966 Y180.886 E122.54625
G1 X155.114 Y180.886 E123.83504
G1 X155.114 Y156.946 E126.67828
G1 X163.580 Y79.111 F7800.000
G1 X163.176 Y78.988 E126.72838 F1800.000
G1 X162.804 Y78.789 E126.77848
G1 X162.478 Y78.522 E126.82858
G1 X162.211 Y78.196 E126.87869
G1 X162.012 Y77.824 E126.92878
G1 X161.889 Y77.420 E126.97889
G1 X161.848 Y77.000 E127.02899
G1 X161.889 Y76.580 E127.07909
G1 X162.012 Y76.176 E127.12919
G1 X162.211 Y75.804 E127.17929
G1 X162.478 Y75.478 E127.22939
G1 X162.804 Y75.211 E127.27950
G1 X163.176 Y75.012 E127.32959
G1 X163.580 Y74.889 E127.37970
G1 X163.975 Y74.851 E127.42679 F1800.000
G1 X164.417 Y74.889 E127.47956
G1 X164.824 Y75.012 E127.52996
G1 X165.196 Y75.211 E127.58005
G1 X165.522 Y75.478 E127.63016
G1 X165.789 Y75.804 E127.68026
G1 X165.988 Y76.176 E127.73036
G1 X166.111 Y76.580 E127.78046
G1 X166.152 Y77.000 E127.83056
G1 X166.111 Y77.420 E127.88066
G1 X165.988 Y77.824 E127.93077
G1 X165.789 Y78.196 E127.98087
G1 X165.522 Y78.522 E128.03097
G1 X165.196 Y78.789 E128.08107
G1 X164.824 Y78.988 E128.13117
G1 X164.420 Y79.111 E128.18128
G1 X164.000 Y79.152 E128.23138
G1 X163.640 Y79.116 E128.27435
G1 X163.307 Y79.403 F7800.000
G1 X163.373 Y79.794 F7800.000
G1 X162.902 Y79.651 E128.33281 F1800.000
G1 X162.406 Y79.386 E128.39962
G1 X161.971 Y79.029 E128.46642
G1 X161.614 Y78.594 E128.53323
G1 X161.349 Y78.098 E128.60004
G1 X161.186 Y77.560 E128.66685
G1 X161.130 Y77.000 E128.73366
G1 X161.186 Y76.440 E128.80046
G1 X161.349 Y75.902 E128.86728
G1 X161.614 Y75.406 E128.93409
G1 X161.971 Y74.971 E129.00089
G1 X162.406 Y74.614 E129.06770
G1 X162.902 Y74.349 E129.13451
G1 X163.440 Y74.186 E129.20133
G1 X163.970 Y74.133 E129.26460 F1800.000
G1 X164.553 Y74.184 E129.33407
G1 X165.098 Y74.349 E129.40171
G1 X165.594 Y74.614 E129.46851
G1 X166.029 Y74.971 E129.53532
G1 X166.386 Y75.406 E129.60212
G1 X166.651 Y75.902 E129.66893
G1 X166.814 Y76.440 E129.73575
G1 X166.870 Y77.000 E129.80256
G1 X166.814 Y77.560 E129.86936
G1 X166.651 Y78.098 E129.93618
G1 X166.386 Y78.594 E130.00299
G1 X166.029 Y79.029 E130.06979
G1 X165.594 Y79.386 E130.13660
G1 X165.098 Y79.651 E130.20341
G1 X164.560 Y79.814 E130.27022
G1 X164.000 Y79.870 E130.33703
G1 X163.430 Y79.811 E130.40504
G1 X160.337 Y102.500 F7800.000
G1 X73.000 Y102.500 F7800.000
G1 X69.022 Y81.472 F7800.000
G1 X69.702 Y79.012 F7800.000
G1 X69.843 Y77.847 F7800.000
G1 X69.870 Y77.307 F7800.000
G1 X66.755 Y77.000 F7800.000
G1 X66.152 Y77.000 F7800.000
G1 X66.111 Y77.420 E130.45514 F1800.000
G1 X65.988 Y77.824 E130.50525
G1 X65.789 Y78.196 E130.55534
G1 X65.522 Y78.522 E130.60545
G1 X65.196 Y78.789 E130.65555
G1 X64.824 Y78.988 E130.70565
G1 X64.420 Y79.111 E130.75575
G1 X64.000 Y79.152 E130.80585
G1 X63.580 Y79.111 E130.85595
G1 X63.176 Y78.988 E130.90606
G1 X62.804 Y78.789 E130.95616
G1 X62.478 Y78.522 E131.00626
G1 X62.211 Y78.196 E131.05636
G1 X62.012 Y77.824 E131.10646
G1 X61.889 Y77.420 E131.15657
G1 X61.848 Y77.000 E131.20667
G1 X61.889 Y76.580 E131.25677
G1 X62.012 Y76.176 E131.30687
G1 X62.211 Y75.804 E131.35697
G1 X62.478 Y75.478 E131.40707
G1 X62.804 Y75.211 E131.45718
G1 X63.176 Y75.012 E131.50727
G1 X63.580 Y74.889 E131.55738
G1 X63.975 Y74.851 E131.60447 F1800.000
G1 X64.417 Y74.889 E131.65724
G1 X64.824 Y75.012 E131.70764
G1 X65.196 Y75.211 E131.75773
G1 X65.522 Y75.478 E131.80784
G1 X65.789 Y75.804 E131.85794
G1 X65.988 Y76.176 E131.90804
G1 X66.111 Y76.580 E131.95814
G1 X66.146 Y76.940 E132.00112
G1 X66.492 Y77.211 F7800.000
G1 X66.863 Y76.930 F7800.000
G1 X66.814 Y77.560 E132.07613 F1800.000
G1 X66.651 Y78.098 E132.14294
G1 X66.386 Y78.594 E132.20975
G1 X66.029 Y79.029 E132.27656
G1 X65.594 Y79.386 E132.34336
G1 X65.098 Y79.651 E132.41017
G1 X64.560 Y79.814 E132.47699
G1 X64.000 Y79.870 E132.54379
G1 X63.440 Y79.814 E132.61060
G1 X62.902 Y79.651 E132.67742
G1 X62.406 Y79.386 E132.74422
G1 X61.971 Y79.029 E132.81103
G1 X61.614 Y78.594 E132.87783
G1 X61.349 Y78.098 E132.94464
G1 X61.186 Y77.560 E133.01146
G1 X61.130 Y77.000 E133.07827
G1 X61.186 Y76.440 E133.14507
G1 X61.349 Y75.902 E133.21189
G1 X61.614 Y75.406 E133.27870
G1 X61.971 Y74.971 E133.34550
G1 X62.406 Y74.614 E133.41231
G1 X62.902 Y74.349 E133.47912
G1 X63.440 Y74.186 E133.54593
G1 X63.970 Y74.133 E133.60921 F1800.000
G1 X64.553 Y74.184 E133.67868
G1 X65.098 Y74.349 E133.74631
G1 X65.594 Y74.614 E133.81312
G1 X66.029 Y74.971 E133.87993
G1 X66.386 Y75.406 E133.94673
G1 X66.651 Y75.902 E134.01354
G1 X66.814 Y76.440 E134.08036
G1 X66.857 Y76.870 E134.13169
G1 X72.172 Y97.828 F7800.000
G1 X155.828 Y97.828 E144.06718 F1800.000
G1 X155.828 Y73.828 E146.91755
G1 X162.237 Y73.828 E147.67872
G1 X161.464 Y74.464 E147.79762
G1 X161.017 Y75.007 E147.88113
G1 X160.686 Y75.627 E147.96465
G1 X160.482 Y76.300 E148.04818
G1 X160.413 Y77.000 E148.13169
G1 X160.482 Y77.700 E148.21520
G1 X160.686 Y78.373 E148.29873
G1 X161.017 Y78.993 E148.38225
G1 X161.464 Y79.536 E148.46576
G1 X162.007 Y79.983 E148.54926
G1 X162.627 Y80.314 E148.63278
G1 X163.300 Y80.518 E148.71631
G1 X164.000 Y80.587 E148.79982
G1 X164.700 Y80.518 E148.88333
G1 X165.373 Y80.314 E148.96686
G1 X165.993 Y79.983 E149.05038
G1 X166.536 Y79.536 E149.13389
G1 X167.172 Y78.763 E149.25279
G1 X167.172 Y175.237 E160.71063
G1 X166.536 Y174.464 E160.82953
G1 X165.993 Y174.017 E160.91304
G1 X165.373 Y173.686 E160.99656
G1 X164.700 Y173.482 E161.08009
G1 X164.000 Y173.413 E161.16360
G1 X163.300 Y173.482 E161.24711
G1 X162.627 Y173.686 E161.33064
G1 X162.007 Y174.017 E161.41416
G1 X161.464 Y174.464 E161.49766
G1 X161.017 Y175.007 E161.58117
G1 X160.686 Y175.627 E161.66469
G1 X160.482 Y176.300 E161.74822
G1 X160.413 Y177.000 E161.83173
G1 X160.482 Y177.700 E161.91524
G1 X160.686 Y178.373 E161.99877
G1 X161.017 Y178.993 E162.08229
G1 X161.464 Y179.536 E162.16580
G1 X162.237 Y180.172 E162.28470
G1 X155.828 Y180.172 E163.04587
G1 X155.828 Y156.172 E165.89623
G1 X72.172 Y156.172 E175.83173
G1 X72.172 Y180.172 E178.68209
G1 X65.763 Y180.172 E179.44327
G1 X66.536 Y179.536 E179.56217
G1 X66.983 Y178.993 E179.64567
G1 X67.314 Y178.373 E179.72919
G1 X67.518 Y177.700 E179.81272
G1 X67.587 Y177.000 E179.89623
G1 X67.518 Y176.300 E179.97975
G1 X67.314 Y175.627 E180.06327
G1 X66.983 Y175.007 E180.14680
G1 X66.536 Y174.464 E180.23030
G1 X65.993 Y174.017 E180.31381
G1 X65.373 Y173.686 E180.39733
G1 X64.700 Y173.482 E180.48086
G1 X64.000 Y173.413 E180.56437
G1 X63.300 Y173.482 E180.64788
G1 X62.627 Y173.686 E180.73141
G1 X62.007 Y174.017 E180.81493
G1 X61.464 Y174.464 E180.89843
G1 X60.828 Y175.237 E181.01734
G1 X60.828 Y78.763 E192.47518
G1 X61.464 Y79.536 E192.59408
G1 X62.007 Y79.983 E192.67759
G1 X62.627 Y80.314 E192.76111
G1 X63.300 Y80.518 E192.84463
G1 X64.000 Y80.587 E192.92815
G1 X64.700 Y80.518 E193.01166
G1 X65.373 Y80.314 E193.09519
G1 X65.993 Y79.983 E193.17870
G1 X66.536 Y79.536 E193.26221
G1 X66.983 Y78.993 E193.34572
G1 X67.314 Y78.373 E193.42924
G1 X67.518 Y77.700 E193.51277
G1 X67.587 Y77.000 E193.59628
G1 X67.518 Y76.300 E193.67979
G1 X67.314 Y75.627 E193.76332
G1 X66.983 Y75.007 E193.84684
G1 X66.536 Y74.464 E193.93034
G1 X65.763 Y73.828 E194.04925
G1 X72.172 Y73.828 E194.81042
G1 X72.172 Y97.768 E197.65366
G1 X73.600 Y108.600 F7800.000
