; generated by Slic3r 1.2.9 on 2016-01-09 at 05:17:26

; external perimeters extrusion width = 0.40mm
; perimeters extrusion width = 0.48mm
; infill extrusion width = 0.48mm
; solid infill extrusion width = 0.48mm
; top infill extrusion width = 0.48mm

M107
M190 S65 ; set bed temperature
M104 S205 ; set temperature
G28 ; home all axes
G1 Z5 F5000 ; lift nozzle

M109 S205 ; wait for temperature to be reached
G21 ; set units to millimeters
G90 ; use absolute coordinates
M82 ; use absolute distances for extrusion
G92 E0
G1 Z0.400 F7800.000
G1 E-2.00000 F2400.00000
G92 E0
G1 X66.042 Y66.122 F7800.000
G1 E2.00000 F2400.00000
G1 X66.471 Y65.726 E2.06924 F1800.000
G1 X70.303 Y62.365 E2.67465
G1 X74.125 Y59.401 E3.24914
G1 X78.467 Y56.434 E3.87371
G1 X82.987 Y53.745 E4.49831
G1 X87.667 Y51.346 E5.12285
G1 X88.048 Y51.166 E5.17296
G1 X92.880 Y49.090 E5.79752
G1 X97.431 Y47.451 E6.37202
G1 X102.478 Y45.972 E6.99660
G1 X107.607 Y44.811 E7.62115
G1 X108.021 Y44.732 E7.67125
G1 X112.799 Y43.976 E8.24575
G1 X118.033 Y43.468 E8.87031
G1 X123.289 Y43.289 E9.49490
G1 X123.872 Y43.294 E9.56412
G1 X128.967 Y43.468 E10.16956 F1800.000
G1 X134.201 Y43.976 E10.79411
G1 X139.393 Y44.811 E11.41868
G1 X144.522 Y45.972 E12.04324
G1 X149.167 Y47.321 E12.61774
G1 X154.120 Y49.090 E13.24233
G1 X158.952 Y51.166 E13.86689
G1 X163.643 Y53.542 E14.49146
G1 X168.176 Y56.207 E15.11602
G1 X172.533 Y59.153 E15.74061
G1 X176.697 Y62.365 E16.36518
G1 X180.650 Y65.833 E16.98973
G1 X184.378 Y69.542 E17.61431
G1 X186.536 Y71.970 E18.00011
G1 X187.743 Y73.939 E18.27433
G1 X188.214 Y76.410 E18.57314
G1 X188.214 Y177.590 E30.58973
G1 X187.817 Y179.864 E30.86396
G1 X186.536 Y182.030 E31.16277
G1 X184.378 Y184.458 E31.54856
G1 X180.958 Y187.878 E32.12307
G1 X177.022 Y191.366 E32.74764
G1 X172.875 Y194.599 E33.37219
G1 X168.533 Y197.566 E33.99677
G1 X164.013 Y200.255 E34.62136
G1 X159.333 Y202.654 E35.24591
G1 X158.952 Y202.834 E35.29601
G1 X154.120 Y204.910 E35.92056
G1 X149.167 Y206.679 E36.54516
G1 X144.114 Y208.133 E37.16971
G1 X139.393 Y209.189 E37.74421
G1 X138.979 Y209.268 E37.79431
G1 X133.783 Y210.077 E38.41883
G1 X128.967 Y210.532 E38.99336
G1 X123.711 Y210.711 E39.61795
G1 X118.454 Y210.559 E40.24251
G1 X118.033 Y210.532 E40.29262
G1 X112.799 Y210.024 E40.91714
G1 X108.021 Y209.268 E41.49167
G1 X107.450 Y209.153 E41.56092
G1 X102.478 Y208.029 E42.16628
G1 X97.431 Y206.549 E42.79090
G1 X92.488 Y204.755 E43.41545
G1 X88.048 Y202.834 E43.98997
G1 X83.357 Y200.458 E44.61454
G1 X78.824 Y197.793 E45.23909
G1 X78.467 Y197.566 E45.28921
G1 X74.125 Y194.599 E45.91378
G1 X69.978 Y191.366 E46.53831
G1 X66.350 Y188.167 E47.11283
G1 X62.622 Y184.458 E47.73741
G1 X62.333 Y184.150 E47.78751
G1 X58.865 Y180.197 E48.41206
G1 X55.901 Y176.375 E48.98655
G1 X52.934 Y172.033 E49.61113
G1 X52.707 Y171.676 E49.66125
G1 X50.042 Y167.143 E50.28580
G1 X47.846 Y162.833 E50.86029
G1 X45.809 Y158.160 E51.46572
G1 X45.590 Y157.620 E51.53495
G1 X43.951 Y153.069 E52.10945
G1 X43.821 Y152.667 E52.15956
G1 X42.367 Y147.614 E52.78412
G1 X41.311 Y142.893 E53.35862
G1 X40.476 Y137.701 E53.98319
G1 X39.968 Y132.467 E54.60774
G1 X39.941 Y132.046 E54.65785
G1 X39.789 Y127.211 E55.23236
G1 X39.936 Y122.115 E55.83777
G1 X39.968 Y121.533 E55.90701
G1 X40.423 Y116.717 E56.48151
G1 X41.232 Y111.521 E57.10607
G1 X41.311 Y111.107 E57.15617
G1 X42.367 Y106.386 E57.73066
G1 X43.821 Y101.333 E58.35522
G1 X45.590 Y96.380 E58.97981
G1 X47.666 Y91.548 E59.60437
G1 X47.846 Y91.167 E59.65447
G1 X50.245 Y86.487 E60.27902
G1 X52.708 Y82.324 E60.85353
G1 X55.653 Y77.967 E61.47811
G1 X55.901 Y77.625 E61.52821
G1 X59.134 Y73.478 E62.15276
G1 X62.333 Y69.850 E62.72726
G1 X66.000 Y66.164 E63.34471
G1 E61.34471 F2400.00000
G92 E0
G1 X68.012 Y68.092 F7800.000
G1 E2.00000 F2400.00000
G1 X71.962 Y64.605 E2.62576 F1800.000
G1 X75.882 Y61.564 E3.21491
G1 X80.085 Y58.703 E3.81872
G1 X84.459 Y56.112 E4.42253
G1 X88.987 Y53.801 E5.02633
G1 X93.766 Y51.732 E5.64478
G1 X98.433 Y50.052 E6.23394
G1 X103.314 Y48.630 E6.83775
G1 X108.396 Y47.494 E7.45619
G1 X113.296 Y46.718 E8.04535
G1 X118.357 Y46.236 E8.64915
G1 X123.438 Y46.072 E9.25296
G1 X123.784 Y46.079 E9.29408
G1 X128.643 Y46.236 E9.87141 F1800.000
G1 X133.704 Y46.718 E10.47522
G1 X138.604 Y47.494 E11.06437
G1 X143.566 Y48.599 E11.66817
G1 X148.567 Y50.052 E12.28662
G1 X153.349 Y51.778 E12.89043
G1 X158.013 Y53.801 E13.49424
G1 X162.541 Y56.112 E14.09803
G1 X166.915 Y58.703 E14.70184
G1 X171.018 Y61.492 E15.29100
G1 X175.038 Y64.605 E15.89480
G1 X178.944 Y68.048 E16.51325
G1 X182.536 Y71.646 E17.11706
G1 X184.921 Y74.351 E17.54529
G1 X185.428 Y75.693 E17.71570
G1 X185.428 Y178.307 E29.90269
G1 X184.921 Y179.649 E30.07308
G1 X182.452 Y182.444 E30.51598
G1 X178.944 Y185.952 E31.10514
G1 X175.133 Y189.317 E31.70894
G1 X171.118 Y192.436 E32.31273
G1 X166.915 Y195.297 E32.91655
G1 X162.541 Y197.888 E33.52036
G1 X158.013 Y200.199 E34.12416
G1 X153.234 Y202.268 E34.74260
G1 X148.449 Y203.986 E35.34644
G1 X143.686 Y205.370 E35.93558
G1 X138.725 Y206.483 E36.53937
G1 X133.582 Y207.297 E37.15780
G1 X128.520 Y207.772 E37.76165
G1 X123.438 Y207.928 E38.36542
G1 X118.480 Y207.772 E38.95459
G1 X113.296 Y207.282 E39.57303
G1 X108.396 Y206.506 E40.16219
G1 X108.058 Y206.434 E40.20332
G1 X103.314 Y205.370 E40.78063
G1 X98.551 Y203.986 E41.36980
G1 X93.651 Y202.222 E41.98825
G1 X89.098 Y200.252 E42.57741
G1 X88.788 Y200.098 E42.61854
G1 X84.459 Y197.888 E43.19586
G1 X80.189 Y195.363 E43.78502
G1 X75.882 Y192.436 E44.40349
G1 X71.867 Y189.317 E45.00726
G1 X68.146 Y186.036 E45.59643
G1 X64.548 Y182.444 E46.20024
G1 X61.105 Y178.538 E46.81869
G1 X57.992 Y174.518 E47.42248
G1 X55.203 Y170.415 E48.01165
G1 X52.553 Y165.933 E48.63010
G1 X50.301 Y161.513 E49.21925
G1 X48.366 Y157.054 E49.79658
G1 X48.232 Y156.734 E49.83771
G1 X46.552 Y152.067 E50.42687
G1 X45.099 Y147.066 E51.04532
G1 X44.017 Y142.225 E51.63447
G1 X43.218 Y137.204 E52.23827
G1 X42.728 Y132.020 E52.85673
G1 X42.572 Y127.062 E53.44589
G1 X42.721 Y122.203 E54.02320
G1 X42.736 Y121.857 E54.06434
G1 X43.203 Y116.918 E54.65350
G1 X44.017 Y111.775 E55.27195
G1 X45.099 Y106.934 E55.86110
G1 X46.514 Y102.051 E56.46489
G1 X48.232 Y97.266 E57.06871
G1 X50.301 Y92.487 E57.68716
G1 X52.553 Y88.067 E58.27631
G1 X55.137 Y83.689 E58.88012
G1 X57.992 Y79.482 E59.48393
G1 X61.183 Y75.367 E60.10237
G1 X64.464 Y71.646 E60.69152
G1 X67.970 Y68.134 E61.28088
G1 X68.517 Y68.597 F7800.000
G1 X72.409 Y65.162 E61.89732 F1800.000
G1 X76.311 Y62.135 E62.48380
G1 X80.477 Y59.300 E63.08229
G1 X84.901 Y56.684 E63.69275
G1 X89.301 Y54.442 E64.27924
G1 X93.924 Y52.438 E64.87771
G1 X98.761 Y50.697 E65.48818
G1 X103.503 Y49.319 E66.07467
G1 X108.420 Y48.217 E66.67314
G1 X113.396 Y47.425 E67.27161
G1 X118.413 Y46.948 E67.87009
G1 X123.550 Y46.786 E68.48055
G1 X128.486 Y46.941 E69.06704 F1800.000
G1 X133.503 Y47.413 E69.66552
G1 X138.481 Y48.198 E70.26399
G1 X143.399 Y49.294 E70.86246
G1 X148.335 Y50.728 E71.47293
G1 X153.076 Y52.438 E72.07140
G1 X157.699 Y54.442 E72.66988
G1 X162.187 Y56.732 E73.26835
G1 X166.523 Y59.300 E73.86683
G1 X170.608 Y62.076 E74.45333
G1 X174.591 Y65.162 E75.05179
G1 X178.373 Y68.492 E75.65026
G1 X181.939 Y72.053 E76.24875
G1 X184.299 Y74.725 E76.67215
G1 X184.714 Y75.823 E76.81157
G1 X184.714 Y178.177 E88.96758
G1 X184.299 Y179.275 E89.10699
G1 X181.939 Y181.947 E89.53040
G1 X178.447 Y185.439 E90.11690
G1 X174.669 Y188.774 E90.71537
G1 X170.689 Y191.865 E91.31384
G1 X166.523 Y194.700 E91.91232
G1 X162.187 Y197.268 E92.51081
G1 X157.699 Y199.558 E93.10928
G1 X153.076 Y201.562 E93.70775
G1 X148.239 Y203.303 E94.31823
G1 X143.497 Y204.681 E94.90471
G1 X138.580 Y205.783 E95.50318
G1 X133.503 Y206.587 E96.11362
G1 X128.486 Y207.059 E96.71213
G1 X123.450 Y207.214 E97.31058
G1 X118.514 Y207.059 E97.89708
G1 X113.397 Y206.575 E98.50753
G1 X108.519 Y205.802 E99.09403
G1 X108.213 Y205.737 E99.13116
G1 X103.503 Y204.681 E99.70447
G1 X98.761 Y203.303 E100.29098
G1 X93.924 Y201.562 E100.90144
G1 X89.392 Y199.601 E101.48793
G1 X89.112 Y199.462 E101.52506
G1 X84.813 Y197.267 E102.09839
G1 X80.562 Y194.754 E102.68488
G1 X76.311 Y191.865 E103.29536
G1 X72.331 Y188.774 E103.89381
G1 X68.627 Y185.508 E104.48030
G1 X65.061 Y181.947 E105.07879
G1 X61.662 Y178.091 E105.68925
G1 X58.576 Y174.108 E106.28771
G1 X55.800 Y170.023 E106.87421
G1 X53.184 Y165.599 E107.48467
G1 X50.942 Y161.199 E108.07116
G1 X49.022 Y156.770 E108.64449
G1 X48.901 Y156.482 E108.68162
G1 X47.228 Y151.835 E109.26812
G1 X45.794 Y146.899 E109.87858
G1 X44.717 Y142.080 E110.46506
G1 X43.925 Y137.104 E111.06354
G1 X43.441 Y131.986 E111.67400
G1 X43.286 Y127.050 E112.26049
G1 X43.435 Y122.225 E112.83382
G1 X43.448 Y121.913 E112.87096
G1 X43.913 Y116.997 E113.45745
G1 X44.717 Y111.920 E114.06791
G1 X45.794 Y107.101 E114.65439
G1 X47.197 Y102.261 E115.25286
G1 X48.901 Y97.518 E115.85135
G1 X50.942 Y92.801 E116.46181
G1 X53.184 Y88.401 E117.04829
G1 X55.746 Y84.062 E117.64677
G1 X58.576 Y79.892 E118.24525
G1 X61.726 Y75.831 E118.85570
G1 X64.992 Y72.127 E119.44219
G1 X68.475 Y68.639 E120.02755
G1 X69.022 Y69.102 F7800.000
G1 X72.855 Y65.720 E120.63467 F1800.000
G1 X76.740 Y62.707 E121.21849
G1 X80.869 Y59.897 E121.81164
G1 X85.166 Y57.353 E122.40480
G1 X89.615 Y55.083 E122.99794
G1 X94.271 Y53.069 E123.60041
G1 X98.896 Y51.404 E124.18423
G1 X103.691 Y50.008 E124.77738
G1 X108.642 Y48.901 E125.37985
G1 X113.497 Y48.132 E125.96367
G1 X118.469 Y47.660 E126.55682
G1 X123.461 Y47.500 E127.14997
G1 X123.740 Y47.507 E127.18310
G1 X128.531 Y47.660 E127.75244 F1800.000
G1 X133.503 Y48.132 E128.34559
G1 X138.435 Y48.916 E128.93873
G1 X143.233 Y49.988 E129.52255
G1 X148.104 Y51.404 E130.12502
G1 X152.802 Y53.098 E130.71817
G1 X157.385 Y55.083 E131.31132
G1 X161.834 Y57.353 E131.90446
G1 X166.065 Y59.855 E132.48829
G1 X170.197 Y62.660 E133.08145
G1 X174.145 Y65.720 E133.67458
G1 X177.893 Y69.020 E134.26773
G1 X181.426 Y72.550 E134.86088
G1 X183.677 Y75.100 E135.26480
G1 X184.000 Y75.954 E135.37324
G1 X184.000 Y178.046 E147.49826
G1 X183.677 Y178.900 E147.60670
G1 X181.426 Y181.450 E148.01062
G1 X177.950 Y184.926 E148.59446
G1 X174.205 Y188.230 E149.18760
G1 X170.261 Y191.293 E149.78074
G1 X166.131 Y194.103 E150.37389
G1 X161.834 Y196.647 E150.96705
G1 X157.385 Y198.917 E151.56019
G1 X152.729 Y200.931 E152.16265
G1 X148.029 Y202.621 E152.75582
G1 X143.309 Y203.992 E153.33963
G1 X138.435 Y205.084 E153.93277
G1 X133.425 Y205.878 E154.53523
G1 X128.453 Y206.345 E155.12840
G1 X123.461 Y206.500 E155.72153
G1 X118.547 Y206.345 E156.30537
G1 X113.497 Y205.868 E156.90782
G1 X108.642 Y205.099 E157.49166
G1 X108.369 Y205.040 E157.52479
G1 X103.691 Y203.992 E158.09411
G1 X98.971 Y202.621 E158.67795
G1 X94.198 Y200.902 E159.28042
G1 X89.686 Y198.950 E159.86424
G1 X89.437 Y198.826 E159.89738
G1 X85.166 Y196.647 E160.46671
G1 X80.935 Y194.145 E161.05054
G1 X76.739 Y191.293 E161.65302
G1 X72.795 Y188.230 E162.24615
G1 X69.107 Y184.980 E162.82998
G1 X65.574 Y181.450 E163.42313
G1 X62.220 Y177.645 E164.02560
G1 X59.160 Y173.697 E164.61874
G1 X56.397 Y169.631 E165.20257
G1 X53.815 Y165.265 E165.80504
G1 X51.583 Y160.885 E166.38886
G1 X49.677 Y156.486 E166.95820
G1 X49.569 Y156.229 E166.99133
G1 X47.904 Y151.604 E167.57516
G1 X46.488 Y146.733 E168.17763
G1 X45.416 Y141.935 E168.76145
G1 X44.632 Y137.003 E169.35460
G1 X44.155 Y131.953 E169.95707
G1 X44.000 Y127.039 E170.54090
G1 X44.149 Y122.248 E171.11023
G1 X44.160 Y121.969 E171.14337
G1 X44.622 Y117.075 E171.72719
G1 X45.416 Y112.065 E172.32966
G1 X46.488 Y107.267 E172.91348
G1 X47.879 Y102.471 E173.50662
G1 X49.569 Y97.771 E174.09978
G1 X51.583 Y93.115 E174.70224
G1 X53.815 Y88.735 E175.28607
G1 X56.355 Y84.435 E175.87922
G1 X59.160 Y80.303 E176.47237
G1 X62.270 Y76.295 E177.07483
G1 X65.520 Y72.607 E177.65865
G1 X68.980 Y69.144 E178.24002
G1 X69.527 Y69.607 F7800.000
G1 X73.302 Y66.277 E178.83782 F1800.000
G1 X77.214 Y63.245 E179.42563
G1 X81.261 Y60.494 E180.00679
G1 X85.569 Y57.946 E180.60128
G1 X89.980 Y55.701 E181.18909
G1 X94.471 Y53.758 E181.77025
G1 X99.181 Y52.062 E182.36473
G1 X103.880 Y50.697 E182.94589
G1 X108.710 Y49.615 E183.53370
G1 X113.598 Y48.839 E184.12152
G1 X118.525 Y48.372 E184.70934
G1 X123.528 Y48.215 E185.30382
G1 X128.419 Y48.368 E185.88498 F1800.000
G1 X133.347 Y48.832 E186.47280
G1 X138.235 Y49.605 E187.06062
G1 X138.475 Y49.657 E187.08976
G1 X143.120 Y50.697 E187.65509
G1 X147.873 Y52.079 E188.24291
G1 X152.477 Y53.737 E188.82408
G1 X157.020 Y55.701 E189.41189
G1 X161.431 Y57.946 E189.99971
G1 X165.692 Y60.464 E190.58753
G1 X169.786 Y63.245 E191.17536
G1 X173.698 Y66.277 E191.76317
G1 X177.412 Y69.549 E192.35098
G1 X180.913 Y73.047 E192.93881
G1 X183.055 Y75.474 E193.32324
G1 X183.285 Y76.084 E193.40070
G1 X183.285 Y177.916 E205.49474
G1 X183.055 Y178.526 E205.57219
G1 X180.951 Y180.912 E205.94997
G1 X177.453 Y184.413 E206.53780
G1 X173.698 Y187.723 E207.13227
G1 X169.786 Y190.755 E207.72008
G1 X165.739 Y193.506 E208.30125
G1 X161.480 Y196.027 E208.88908
G1 X157.071 Y198.275 E209.47689
G1 X152.529 Y200.242 E210.06471
G1 X147.819 Y201.938 E210.65920
G1 X143.120 Y203.303 E211.24035
G1 X138.290 Y204.385 E211.82816
G1 X133.347 Y205.168 E212.42263
G1 X128.419 Y205.632 E213.01047
G1 X123.472 Y205.785 E213.59827
G1 X118.581 Y205.632 E214.17944
G1 X113.598 Y205.161 E214.77391
G1 X108.765 Y204.395 E215.35508
G1 X108.525 Y204.343 E215.38422
G1 X103.880 Y203.303 E215.94954
G1 X99.181 Y201.938 E216.53071
G1 X94.471 Y200.243 E217.12519
G1 X89.980 Y198.299 E217.70635
G1 X89.761 Y198.189 E217.73549
G1 X85.520 Y196.027 E218.30083
G1 X81.308 Y193.536 E218.88199
G1 X77.168 Y190.722 E219.47648
G1 X73.259 Y187.687 E220.06428
G1 X69.588 Y184.451 E220.64544
G1 X66.087 Y180.953 E221.23327
G1 X62.777 Y177.198 E221.82774
G1 X59.745 Y173.286 E222.41555
G1 X56.994 Y169.239 E222.99672
G1 X54.446 Y164.931 E223.59120
G1 X52.225 Y160.571 E224.17235
G1 X50.333 Y156.203 E224.73769
G1 X50.237 Y155.977 E224.76683
G1 X48.579 Y151.373 E225.34800
G1 X47.183 Y146.566 E225.94247
G1 X46.105 Y141.735 E226.53029
G1 X45.332 Y136.847 E227.11811
G1 X44.872 Y131.975 E227.69927
G1 X44.715 Y126.972 E228.29375
G1 X44.868 Y122.081 E228.87491
G1 X45.332 Y117.153 E229.46273
G1 X46.115 Y112.210 E230.05721
G1 X47.183 Y107.434 E230.63836
G1 X48.562 Y102.681 E231.22617
G1 X50.237 Y98.023 E231.81400
G1 X52.225 Y93.429 E232.40848
G1 X54.446 Y89.069 E232.98963
G1 X56.964 Y84.808 E233.57745
G1 X59.745 Y80.714 E234.16528
G1 X62.813 Y76.759 E234.75975
G1 X66.049 Y73.088 E235.34091
G1 X69.485 Y69.649 E235.91828
G1 X70.032 Y70.112 F7800.000
G1 X73.749 Y66.834 E236.50675 F1800.000
G1 X77.597 Y63.849 E237.08524
G1 X81.653 Y61.091 E237.66774
G1 X85.874 Y58.594 E238.25023
G1 X90.244 Y56.366 E238.83272
G1 X94.776 Y54.405 E239.41920
G1 X99.359 Y52.755 E239.99770
G1 X104.068 Y51.386 E240.58019
G1 X108.887 Y50.308 E241.16667
G1 X113.698 Y49.547 E241.74517
G1 X118.581 Y49.084 E242.32766
G1 X123.695 Y48.934 E242.93525
G1 X128.419 Y49.084 E243.49660 F1800.000
G1 X133.302 Y49.547 E244.07909
G1 X138.113 Y50.308 E244.65758
G1 X142.899 Y51.377 E245.24007
G1 X147.641 Y52.755 E245.82655
G1 X152.224 Y54.405 E246.40505
G1 X156.726 Y56.352 E246.98754
G1 X161.096 Y58.578 E247.57003
G1 X165.318 Y61.073 E248.15252
G1 X169.403 Y63.849 E248.73901
G1 X173.251 Y66.834 E249.31750
G1 X176.931 Y70.077 E249.89999
G1 X180.423 Y73.569 E250.48648
G1 X182.433 Y75.849 E250.84743
G1 X182.571 Y76.215 E250.89391
G1 X182.571 Y177.785 E262.95697
G1 X182.433 Y178.151 E263.00344
G1 X180.423 Y180.431 E263.36440
G1 X176.931 Y183.923 E263.95089
G1 X173.252 Y187.166 E264.53338
G1 X169.376 Y190.171 E265.11586
G1 X165.318 Y192.927 E265.69836
G1 X161.096 Y195.422 E266.28085
G1 X156.726 Y197.648 E266.86334
G1 X152.224 Y199.595 E267.44583
G1 X147.609 Y201.255 E268.02833
G1 X142.932 Y202.614 E268.60682
G1 X138.146 Y203.685 E269.18930
G1 X133.268 Y204.458 E269.77579
G1 X128.385 Y204.918 E270.35829
G1 X123.517 Y205.071 E270.93678
G1 X118.615 Y204.918 E271.51927
G1 X113.732 Y204.458 E272.10176
G1 X108.854 Y203.685 E272.68824
G1 X104.101 Y202.623 E273.26673
G1 X99.391 Y201.255 E273.84923
G1 X94.744 Y199.583 E274.43571
