; generated by Slic3r 1.2.9 on 2015-12-31 at 20:47:53

; external perimeters extrusion width = 0.40mm
; perimeters extrusion width = 0.48mm
; infill extrusion width = 0.48mm
; solid infill extrusion width = 0.48mm
; top infill extrusion width = 0.48mm

M107
M190 S65 ; set bed temperature
M104 S205 ; set temperature
G28 ; home all axes
G1 Z5 F5000 ; lift nozzle

M109 S205 ; wait for temperature to be reached
G21 ; set units to millimeters
G90 ; use absolute coordinates
M82 ; use absolute distances for extrusion
G92 E0
G1 Z0.400 F7800.000
G1 E-2.00000 F2400.00000
G92 E0
G1 X55.536 Y62.994 F7800.000
G1 E2.00000 F2400.00000
G1 X58.891 Y60.054 E2.52977 F1800.000
G1 X62.862 Y56.973 E3.12666
G1 X63.227 Y56.709 E3.18017
G1 X67.716 Y53.675 E3.82370
G1 X72.042 Y51.116 E4.42058
G1 X76.889 Y48.631 E5.06754
G1 X77.271 Y48.452 E5.11764
G1 X82.276 Y46.301 E5.76458
G1 X87.405 Y44.468 E6.41153
G1 X92.232 Y43.066 E7.00842
G1 X97.545 Y41.865 E7.65536
G1 X97.959 Y41.786 E7.70545
G1 X103.341 Y40.946 E8.35241
G1 X108.345 Y40.474 E8.94931
G1 X113.789 Y40.289 E9.59624
G1 X114.239 Y40.290 E9.64972
G1 X119.655 Y40.474 E10.29328 F1800.000
G1 X124.658 Y40.946 E10.89017
G1 X125.105 Y41.004 E10.94365
G1 X130.455 Y41.865 E11.58723
G1 X135.360 Y42.961 E12.18411
G1 X140.595 Y44.468 E12.83105
G1 X145.724 Y46.301 E13.47801
G1 X146.143 Y46.467 E13.53148
G1 X151.110 Y48.631 E14.17500
G1 X155.589 Y50.913 E14.77194
G1 X155.983 Y51.131 E14.82542
G1 X160.640 Y53.901 E15.46896
G1 X164.797 Y56.725 E16.06584
G1 X165.138 Y56.973 E16.11595
G1 X169.434 Y60.322 E16.76289
G1 X173.204 Y63.646 E17.35978
G1 X177.045 Y67.468 E18.00336
G1 X177.354 Y67.796 E18.05683
G1 X180.678 Y71.566 E18.65376
G1 X184.027 Y75.862 E19.30067
G1 X184.275 Y76.203 E19.35077
G1 X187.099 Y80.360 E19.94765
G1 X189.884 Y85.042 E20.59458
G1 X192.369 Y89.889 E21.24154
G1 X194.411 Y94.576 E21.84870
G1 X194.699 Y95.276 E21.93858
G1 X196.402 Y100.004 E22.53546
G1 X197.934 Y105.232 E23.18242
G1 X199.062 Y110.218 E23.78956
G1 X199.215 Y110.959 E23.87945
G1 X200.054 Y116.342 E24.52640
G1 X200.526 Y121.345 E25.12330
G1 X200.711 Y126.789 E25.77022
G1 X200.711 Y127.211 E25.82033
G1 X200.526 Y132.655 E26.46727
G1 X200.054 Y137.658 E27.06415
G1 X199.214 Y143.041 E27.71112
G1 X199.135 Y143.455 E27.76122
G1 X197.934 Y148.768 E28.40816
G1 X196.532 Y153.595 E29.00504
G1 X194.699 Y158.724 E29.65199
G1 X192.548 Y163.729 E30.29894
G1 X192.369 Y164.111 E30.34904
G1 X189.884 Y168.958 E30.99599
G1 X187.325 Y173.284 E31.59289
G1 X184.275 Y177.797 E32.23981
G1 X184.027 Y178.138 E32.28991
G1 X180.678 Y182.434 E32.93682
G1 X177.065 Y186.511 E33.58382
G1 X173.205 Y190.353 E34.23066
G1 X169.434 Y193.677 E34.82766
G1 X169.086 Y193.964 E34.88116
G1 X164.797 Y197.274 E35.52466
G1 X160.285 Y200.325 E36.17154
G1 X155.958 Y202.884 E36.76853
G1 X155.589 Y203.087 E36.81862
G1 X150.729 Y205.548 E37.46556
G1 X145.724 Y207.699 E38.11253
G1 X140.595 Y209.532 E38.75938
G1 X135.768 Y210.934 E39.35637
G1 X135.332 Y211.045 E39.40986
G1 X130.041 Y212.214 E40.05333
G1 X125.077 Y213.001 E40.65029
G1 X124.630 Y213.056 E40.70380
G1 X119.234 Y213.553 E41.34733
G1 X114.211 Y213.711 E41.94421
G1 X108.766 Y213.553 E42.59118
G1 X103.342 Y213.054 E43.23812
G1 X102.923 Y213.001 E43.28822
G1 X97.545 Y212.135 E43.93518
G1 X92.640 Y211.039 E44.53206
G1 X87.405 Y209.532 E45.17900
G1 X87.004 Y209.402 E45.22910
G1 X82.276 Y207.699 E45.82598
G1 X77.271 Y205.548 E46.47292
G1 X72.411 Y203.087 E47.11989
G1 X72.042 Y202.884 E47.16998
G1 X67.360 Y200.099 E47.81691
G1 X62.862 Y197.027 E48.46383
G1 X58.891 Y193.946 E49.06076
G1 X54.796 Y190.354 E49.70771
G1 X54.489 Y190.065 E49.75781
G1 X50.935 Y186.511 E50.35469
G1 X47.341 Y182.456 E50.99825
G1 X47.054 Y182.109 E51.05174
G1 X43.973 Y178.138 E51.64862
G1 X43.725 Y177.797 E51.69872
G1 X40.675 Y173.284 E52.34566
G1 X38.116 Y168.958 E52.94256
G1 X35.645 Y164.136 E53.58608
G1 X35.452 Y163.729 E53.63960
G1 X33.456 Y159.116 E54.23650
G1 X31.608 Y154.023 E54.88002
G1 X31.468 Y153.595 E54.93351
G1 X30.066 Y148.768 E55.53040
G1 X28.865 Y143.455 E56.17734
G1 X28.004 Y138.105 E56.82088
G1 X27.946 Y137.658 E56.87440
G1 X27.474 Y132.655 E57.47128
G1 X27.290 Y127.240 E58.11481
G1 X27.289 Y126.789 E58.16832
G1 X27.447 Y121.766 E58.76520
G1 X27.944 Y116.370 E59.40873
G1 X27.999 Y115.923 E59.46225
G1 X28.786 Y110.959 E60.05913
G1 X29.961 Y105.640 E60.70611
G1 X31.460 Y100.433 E61.34962
G1 X31.598 Y100.004 E61.40312
G1 X33.301 Y95.276 E62.00001
G1 X35.452 Y90.271 E62.64694
G1 X37.913 Y85.411 E63.29393
G1 X38.116 Y85.042 E63.34401
G1 X40.901 Y80.360 E63.99094
G1 X43.725 Y76.203 E64.58782
G1 X47.054 Y71.891 E65.23479
G1 X50.627 Y67.818 E65.87833
G1 X50.935 Y67.489 E65.93183
G1 X54.489 Y63.935 E66.52871
G1 X55.491 Y63.033 E66.68884
G1 X57.379 Y65.084 F7800.000
G1 X60.550 Y62.293 E67.19052 F1800.000
G1 X64.619 Y59.137 E67.80207
G1 X69.081 Y56.104 E68.44290
G1 X73.513 Y53.483 E69.05443
G1 X78.209 Y51.086 E69.68062
G1 X83.161 Y48.943 E70.32146
G1 X88.006 Y47.199 E70.93299
G1 X93.068 Y45.724 E71.55918
G1 X98.334 Y44.547 E72.20001
G1 X103.542 Y43.726 E72.82619
G1 X108.669 Y43.242 E73.43774
G1 X114.152 Y43.075 E74.08928
G1 X119.331 Y43.242 E74.70474 F1800.000
G1 X124.458 Y43.726 E75.31627
G1 X129.787 Y44.570 E75.95715
G1 X134.812 Y45.694 E76.56866
G1 X139.876 Y47.161 E77.19484
G1 X144.839 Y48.943 E77.82102
G1 X149.790 Y51.086 E78.46183
G1 X154.564 Y53.529 E79.09876
G1 X159.023 Y56.170 E79.71421
G1 X163.282 Y59.065 E80.32575
G1 X167.545 Y62.372 E80.96658
G1 X171.408 Y65.777 E81.57812
G1 X175.075 Y69.438 E82.19358
G1 X178.628 Y73.455 E82.83050
G1 X181.935 Y77.718 E83.47132
G1 X184.896 Y82.081 E84.09750
G1 X187.517 Y86.513 E84.70903
G1 X189.914 Y91.209 E85.33523
G1 X192.057 Y96.161 E85.97606
G1 X193.801 Y101.006 E86.58760
G1 X195.276 Y106.068 E87.21378
G1 X196.453 Y111.334 E87.85462
G1 X197.258 Y116.420 E88.46615
G1 X197.758 Y121.669 E89.09235
G1 X197.928 Y127.062 E89.73318
G1 X197.766 Y132.208 E90.34472
G1 X197.274 Y137.458 E90.97090
G1 X196.453 Y142.666 E91.59710
G1 X195.276 Y147.932 E92.23793
G1 X193.839 Y152.876 E92.84946
G1 X192.057 Y157.839 E93.47565
G1 X189.967 Y162.679 E94.10183
G1 X187.517 Y167.487 E94.74268
G1 X184.896 Y171.919 E95.35421
G1 X181.935 Y176.282 E95.98039
G1 X178.628 Y180.545 E96.62121
G1 X175.139 Y184.498 E97.24742
G1 X171.408 Y188.223 E97.87356
G1 X167.545 Y191.628 E98.48515
G1 X163.282 Y194.935 E99.12596
G1 X158.919 Y197.895 E99.75212
G1 X154.487 Y200.517 E100.36370
G1 X149.679 Y202.966 E101.00453
G1 X144.838 Y205.057 E101.63074
G1 X139.877 Y206.839 E102.25686
G1 X134.932 Y208.276 E102.86842
G1 X129.666 Y209.453 E103.50925
G1 X124.368 Y210.282 E104.14618
G1 X119.208 Y210.766 E104.76173
G1 X114.062 Y210.928 E105.37315
G1 X108.792 Y210.766 E105.99937
G1 X103.420 Y210.258 E106.64023
G1 X98.334 Y209.453 E107.25176
G1 X93.188 Y208.306 E107.87794
G1 X88.006 Y206.801 E108.51877
G1 X83.161 Y205.057 E109.13031
G1 X78.321 Y202.966 E109.75648
G1 X73.621 Y200.576 E110.38269
G1 X68.977 Y197.829 E111.02353
G1 X64.619 Y194.863 E111.64967
G1 X60.550 Y191.707 E112.26123
G1 X56.502 Y188.139 E112.90207
G1 X52.862 Y184.498 E113.51359
G1 X49.432 Y180.613 E114.12906
G1 X46.137 Y176.382 E114.76593
G1 X43.104 Y171.919 E115.40679
G1 X40.483 Y167.487 E116.01833
G1 X38.127 Y162.871 E116.63379
G1 X35.989 Y157.953 E117.27069
G1 X34.161 Y152.876 E117.91152
G1 X32.694 Y147.812 E118.53769
G1 X31.570 Y142.787 E119.14921
G1 X30.726 Y137.458 E119.79008
G1 X30.242 Y132.331 E120.40161
G1 X30.075 Y127.152 E121.01707
G1 X30.234 Y121.792 E121.65397
G1 X30.742 Y116.420 E122.29481
G1 X31.570 Y111.213 E122.92100
G1 X32.694 Y106.188 E123.53254
G1 X34.161 Y101.124 E124.15872
G1 X35.989 Y96.047 E124.79955
G1 X38.033 Y91.321 E125.41108
G1 X40.424 Y86.621 E126.03729
G1 X43.170 Y81.977 E126.67810
G1 X46.065 Y77.718 E127.28964
G1 X49.293 Y73.550 E127.91584
G1 X52.861 Y69.502 E128.55667
G1 X56.502 Y65.861 E129.16821
G1 X57.334 Y65.123 E129.30024
G1 X57.851 Y65.619 F7800.000
G1 X60.996 Y62.851 E129.79793 F1800.000
G1 X65.047 Y59.708 E130.40680
G1 X69.455 Y56.713 E131.03964
G1 X73.867 Y54.104 E131.64851
G1 X78.524 Y51.727 E132.26938
G1 X83.414 Y49.611 E132.90222
G1 X88.237 Y47.875 E133.51108
G1 X93.257 Y46.413 E134.13195
G1 X98.457 Y45.251 E134.76479
G1 X103.621 Y44.436 E135.38564
G1 X108.725 Y43.954 E135.99452
G1 X114.050 Y43.786 E136.62735
G1 X119.175 Y43.947 E137.23624 F1800.000
G1 X124.379 Y44.436 E137.85709
G1 X129.543 Y45.251 E138.47796
G1 X134.743 Y46.413 E139.11081
G1 X139.762 Y47.875 E139.73166
G1 X144.586 Y49.611 E140.34053
G1 X149.476 Y51.727 E140.97335
G1 X154.201 Y54.144 E141.60362
G1 X158.631 Y56.767 E142.21507
G1 X162.871 Y59.649 E142.82394
G1 X167.081 Y62.915 E143.45678
G1 X170.927 Y66.305 E144.06566
G1 X174.570 Y69.943 E144.67712
G1 X178.085 Y73.919 E145.30738
G1 X181.351 Y78.129 E145.94021
G1 X184.233 Y82.369 E146.54908
G1 X186.896 Y86.867 E147.16993
G1 X189.273 Y91.524 E147.79080
G1 X191.389 Y96.414 E148.42364
G1 X193.125 Y101.238 E149.03251
G1 X194.587 Y106.257 E149.65337
G1 X195.749 Y111.457 E150.28621
G1 X196.551 Y116.520 E150.89508
G1 X197.046 Y121.725 E151.51595
G1 X197.214 Y127.050 E152.14879
G1 X197.053 Y132.175 E152.75766
G1 X196.564 Y137.379 E153.37851
G1 X195.749 Y142.543 E153.99938
G1 X194.587 Y147.743 E154.63222
G1 X193.157 Y152.666 E155.24109
G1 X191.389 Y157.586 E155.86195
G1 X189.273 Y162.476 E156.49479
G1 X186.896 Y167.133 E157.11566
G1 X184.287 Y171.546 E157.72453
G1 X181.351 Y175.871 E158.34537
G1 X178.085 Y180.081 E158.97821
G1 X174.626 Y184.001 E159.59909
G1 X170.927 Y187.695 E160.21990
G1 X167.081 Y191.085 E160.82882
G1 X162.871 Y194.351 E161.46165
G1 X158.546 Y197.287 E162.08248
G1 X154.133 Y199.896 E162.69139
G1 X149.385 Y202.316 E163.32423
G1 X144.586 Y204.389 E163.94510
G1 X139.667 Y206.156 E164.56591
G1 X134.743 Y207.587 E165.17480
G1 X129.543 Y208.749 E165.80764
G1 X124.301 Y209.571 E166.43791
G1 X119.174 Y210.053 E167.04944
G1 X114.051 Y210.214 E167.65822
G1 X108.825 Y210.053 E168.27911
G1 X103.520 Y209.551 E168.91197
G1 X98.457 Y208.749 E169.52084
G1 X93.354 Y207.612 E170.14169
G1 X88.237 Y206.125 E170.77452
G1 X83.414 Y204.389 E171.38340
G1 X78.615 Y202.316 E172.00425
G1 X73.956 Y199.945 E172.62513
G1 X69.369 Y197.232 E173.25797
G1 X65.047 Y194.292 E173.87879
G1 X60.996 Y191.149 E174.48768
G1 X56.999 Y187.626 E175.12053
G1 X53.374 Y184.001 E175.72938
G1 X49.967 Y180.141 E176.34086
G1 X46.708 Y175.953 E176.97108
G1 X43.713 Y171.545 E177.60394
G1 X41.104 Y167.133 E178.21282
G1 X38.763 Y162.547 E178.82427
G1 X36.648 Y157.680 E179.45452
G1 X34.843 Y152.666 E180.08736
G1 X33.388 Y147.646 E180.70820
G1 X32.270 Y142.642 E181.31706
G1 X31.436 Y137.379 E181.94993
G1 X30.954 Y132.275 E182.55880
G1 X30.789 Y127.130 E183.17026
G1 X30.947 Y121.825 E183.80050
G1 X31.449 Y116.520 E184.43335
G1 X32.270 Y111.358 E185.05421
G1 X33.388 Y106.354 E185.66309
G1 X34.843 Y101.334 E186.28394
G1 X36.648 Y96.320 E186.91678
G1 X38.684 Y91.615 E187.52565
G1 X41.055 Y86.956 E188.14652
G1 X43.767 Y82.369 E188.77935
G1 X46.649 Y78.129 E189.38822
G1 X49.851 Y73.996 E190.00908
G1 X53.374 Y69.999 E190.64193
G1 X56.999 Y66.374 E191.25080
G1 X57.806 Y65.659 E191.37883
G1 X58.323 Y66.155 F7800.000
G1 X61.443 Y63.408 E191.87253 F1800.000
G1 X65.476 Y60.279 E192.47874
G1 X69.828 Y57.322 E193.10359
G1 X74.290 Y54.686 E193.71911
G1 X78.838 Y52.369 E194.32533
G1 X83.666 Y50.279 E194.95017
G1 X88.469 Y48.550 E195.55638
G1 X93.445 Y47.102 E196.17191
G1 X98.580 Y45.954 E196.79676
G1 X103.621 Y45.156 E197.40297
G1 X108.781 Y44.666 E198.01850
G1 X114.107 Y44.503 E198.65140
G1 X119.219 Y44.666 E199.25887 F1800.000
G1 X124.301 Y45.146 E199.86507
G1 X129.498 Y45.969 E200.48995
G1 X134.479 Y47.083 E201.09614
G1 X139.456 Y48.526 E201.71167
G1 X144.334 Y50.279 E202.32720
G1 X149.162 Y52.369 E202.95203
G1 X153.837 Y54.759 E203.57563
G1 X158.239 Y57.364 E204.18309
G1 X162.460 Y60.233 E204.78930
G1 X166.617 Y63.458 E205.41414
G1 X170.446 Y66.834 E206.02036
G1 X174.065 Y70.448 E206.62782
G1 X177.542 Y74.383 E207.25142
G1 X180.767 Y78.540 E207.87626
G1 X183.636 Y82.761 E208.48247
G1 X186.276 Y87.221 E209.09799
G1 X188.631 Y91.838 E209.71353
G1 X190.721 Y96.666 E210.33837
G1 X192.450 Y101.469 E210.94458
G1 X193.898 Y106.445 E211.56011
G1 X195.046 Y111.580 E212.18497
G1 X195.854 Y116.699 E212.80049
G1 X196.334 Y121.781 E213.40671
G1 X196.500 Y126.961 E214.02223
G1 X196.334 Y132.219 E214.64708
G1 X195.844 Y137.379 E215.26262
G1 X195.046 Y142.420 E215.86883
G1 X193.898 Y147.555 E216.49368
G1 X192.474 Y152.456 E217.09988
G1 X190.721 Y157.334 E217.71541
G1 X188.665 Y162.091 E218.33093
G1 X186.276 Y166.779 E218.95580
G1 X183.678 Y171.172 E219.56200
G1 X180.767 Y175.460 E220.17752
G1 X177.542 Y179.617 E220.80237
G1 X174.113 Y183.503 E221.41791
G1 X170.446 Y187.166 E222.03341
G1 X166.617 Y190.542 E222.63966
G1 X162.460 Y193.767 E223.26450
G1 X158.172 Y196.678 E223.88001
G1 X153.779 Y199.276 E224.48624
G1 X149.091 Y201.665 E225.11109
G1 X144.334 Y203.721 E225.72663
G1 X139.457 Y205.474 E226.34212
G1 X134.555 Y206.898 E226.94834
G1 X129.420 Y208.046 E227.57319
G1 X124.233 Y208.860 E228.19680
G1 X119.141 Y209.339 E228.80431
G1 X114.039 Y209.500 E229.41045
G1 X108.859 Y209.339 E230.02600
G1 X103.621 Y208.844 E230.65087
G1 X98.580 Y208.046 E231.25707
G1 X93.521 Y206.917 E231.87260
G1 X88.469 Y205.450 E232.49744
G1 X83.666 Y203.721 E233.10365
G1 X78.909 Y201.665 E233.71917
G1 X74.290 Y199.314 E234.33472
G1 X69.761 Y196.636 E234.95957
G1 X65.476 Y193.721 E235.57507
G1 X61.443 Y190.592 E236.18129
G1 X57.497 Y187.113 E236.80615
G1 X53.887 Y183.504 E237.41234
G1 X50.503 Y179.668 E238.01982
G1 X47.280 Y175.524 E238.64338
G1 X44.322 Y171.172 E239.26825
G1 X41.724 Y166.779 E239.87446
G1 X39.400 Y162.223 E240.48193
G1 X37.308 Y157.407 E241.10551
G1 X35.526 Y152.456 E241.73035
G1 X34.083 Y147.479 E242.34588
G1 X32.969 Y142.498 E242.95207
G1 X32.146 Y137.301 E243.57695
G1 X31.666 Y132.219 E244.18315
G1 X31.503 Y127.107 E244.79061
G1 X31.661 Y121.859 E245.41420
G1 X32.156 Y116.621 E246.03906
G1 X32.969 Y111.503 E246.65458
G1 X34.083 Y106.521 E247.26080
G1 X35.526 Y101.544 E247.87632
G1 X37.308 Y96.593 E248.50117
G1 X39.369 Y91.838 E249.11669
G1 X41.686 Y87.290 E249.72291
G1 X44.364 Y82.761 E250.34775
G1 X47.233 Y78.540 E250.95396
G1 X50.408 Y74.443 E251.56949
G1 X53.887 Y70.497 E252.19435
G1 X57.497 Y66.887 E252.80055
G1 X58.278 Y66.195 E252.92459
G1 X58.796 Y66.691 F7800.000
G1 X61.890 Y63.965 E253.41429 F1800.000
G1 X65.905 Y60.851 E254.01784
G1 X70.201 Y57.931 E254.63469
G1 X74.575 Y55.344 E255.23823
G1 X79.152 Y53.010 E255.84844
G1 X83.919 Y50.948 E256.46529
G1 X88.700 Y49.226 E257.06883
G1 X93.634 Y47.791 E257.67904
G1 X98.702 Y46.658 E258.29590
G1 X103.722 Y45.863 E258.89944
G1 X108.837 Y45.378 E259.50965
G1 X114.028 Y45.215 E260.12650
G1 X119.107 Y45.374 E260.73005 F1800.000
G1 X124.223 Y45.856 E261.34025
G1 X129.298 Y46.658 E261.95045
G1 X134.366 Y47.791 E262.56732
G1 X139.300 Y49.226 E263.17751
G1 X144.081 Y50.948 E263.78106
G1 X148.848 Y53.010 E264.39790
G1 X153.425 Y55.344 E265.00812
G1 X157.799 Y57.931 E265.61166
G1 X162.050 Y60.818 E266.22186
G1 X166.154 Y64.001 E266.83871
G1 X169.966 Y67.362 E267.44226
G1 X173.560 Y70.953 E268.04572
G1 X176.999 Y74.846 E268.66267
G1 X180.182 Y78.950 E269.27952
G1 X183.039 Y83.154 E269.88306
G1 X185.656 Y87.575 E270.49325
G1 X187.990 Y92.152 E271.10347
G1 X190.052 Y96.919 E271.72032
G1 X191.774 Y101.700 E272.32386
G1 X193.209 Y106.634 E272.93406
G1 X194.342 Y111.703 E273.55093
G1 X195.144 Y116.777 E274.16112
G1 X195.622 Y121.837 E274.76467
G1 X195.785 Y126.972 E275.37487
G1 X195.622 Y132.163 E275.99173
G1 X195.137 Y137.278 E276.60194
G1 X194.342 Y142.298 E277.20548
G1 X193.209 Y147.366 E277.82234
G1 X191.791 Y152.246 E278.42588
G1 X190.052 Y157.081 E279.03608
G1 X188.014 Y161.797 E279.64627
G1 X185.656 Y166.425 E280.26314
G1 X183.069 Y170.799 E280.86669
G1 X180.182 Y175.050 E281.47688
G1 X176.999 Y179.154 E282.09373
G1 X173.600 Y183.006 E282.70395
G1 X169.966 Y186.638 E283.31413
G1 X166.154 Y189.999 E283.91770
G1 X162.050 Y193.182 E284.53455
G1 X157.799 Y196.069 E285.14474
G1 X153.425 Y198.656 E285.74830
